%
(Header)
(Generated by gcodetools from Inkscape.)
(Using default header. To add your own header create file "header" in the output dir.)
M3
(Header end.)
G21 (All units in mm)

(Start cutting path id: polygon3365)
(Change tool to Default tool)

G00 Z5.000000
G00 X4.556732 Y131.707122

G01 Z-0.125000 F100.0(Penetrate)
G01 X6.968713 Y146.594002 Z-0.125000 F400.000000
G01 X6.464410 Y147.700187 Z-0.125000
G01 X6.151003 Y145.770684 Z-0.125000
G01 X5.491575 Y147.192132 Z-0.125000
G01 X5.399224 Y150.031867 Z-0.125000
G01 X4.652940 Y151.661119 Z-0.125000
G01 X4.029750 Y147.820287 Z-0.125000
G01 X4.180316 Y143.212236 Z-0.125000
G01 X4.602439 Y142.305165 Z-0.125000
G01 X4.750901 Y137.731090 Z-0.125000
G01 X4.425571 Y135.724944 Z-0.125000
G01 X4.556732 Y131.707122 Z-0.125000
G00 Z5.000000

(End cutting path id: polygon3365)


(Start cutting path id: polygon3363)
(Change tool to Default tool)

G00 Z5.000000
G00 X0.000000 Y161.572537

G01 Z-0.125000 F100.0(Penetrate)
G01 X0.703383 Y139.937929 Z-0.125000 F400.000000
G01 X1.195996 Y142.977567 Z-0.125000
G01 X1.107854 Y145.703523 Z-0.125000
G01 X1.607364 Y148.777137 Z-0.125000
G01 X1.999912 Y147.930906 Z-0.125000
G01 X2.506319 Y151.056668 Z-0.125000
G01 X2.330854 Y156.478555 Z-0.125000
G01 X1.673413 Y157.914225 Z-0.125000
G01 X1.354161 Y155.947586 Z-0.125000
G01 X0.695200 Y157.357182 Z-0.125000
G01 X0.600979 Y160.260127 Z-0.125000
G01 X0.000000 Y161.572537 Z-0.125000
G00 Z5.000000

(End cutting path id: polygon3363)


(Start cutting path id: polygon3361)
(Change tool to Default tool)

G00 Z5.000000
G00 X0.999138 Y137.757954

G01 Z-0.125000 F100.0(Penetrate)
G01 X4.129582 Y131.031559 Z-0.125000 F400.000000
G01 X3.997369 Y135.100740 Z-0.125000
G01 X3.580039 Y135.995170 Z-0.125000
G01 X3.432512 Y140.567664 Z-0.125000
G01 X3.754219 Y142.555637 Z-0.125000
G01 X3.602483 Y147.154206 Z-0.125000
G01 X2.801958 Y148.876694 Z-0.125000
G01 X2.301629 Y145.785697 Z-0.125000
G01 X2.393161 Y142.930159 Z-0.125000
G01 X1.895287 Y139.861286 Z-0.125000
G01 X1.483101 Y140.749395 Z-0.125000
G01 X0.999138 Y137.757954 Z-0.125000
G00 Z5.000000

(End cutting path id: polygon3361)


(Start cutting path id: polygon3359)
(Change tool to Default tool)

G00 Z5.000000
G00 X5.854196 Y154.913303

G01 Z-0.125000 F100.0(Penetrate)
G01 X6.513040 Y153.493436 Z-0.125000 F400.000000
G01 X6.611469 Y150.489353 Z-0.125000
G01 X7.106187 Y149.401341 Z-0.125000
G01 X6.401402 Y171.083357 Z-0.125000
G01 X6.015751 Y168.709800 Z-0.125000
G01 X6.113596 Y165.718360 Z-0.125000
G01 X5.600759 Y162.570474 Z-0.125000
G01 X5.166595 Y163.508361 Z-0.125000
G01 X4.596945 Y160.015977 Z-0.125000
G01 X4.776385 Y154.507175 Z-0.125000
G01 X5.523138 Y152.868441 Z-0.125000
G01 X5.854196 Y154.913303 Z-0.125000
G00 Z5.000000

(End cutting path id: polygon3359)


(Start cutting path id: polygon3357)
(Change tool to Default tool)

G00 Z5.000000
G00 X2.550858 Y179.330757

G01 Z-0.125000 F100.0(Penetrate)
G01 X0.130109 Y164.396469 Z-0.125000 F400.000000
G01 X0.734478 Y163.080109 Z-0.125000
G01 X1.057821 Y165.083884 Z-0.125000
G01 X1.717484 Y163.658486 Z-0.125000
G01 X1.812639 Y160.719194 Z-0.125000
G01 X2.446233 Y159.334093 Z-0.125000
G01 X3.077372 Y163.221543 Z-0.125000
G01 X2.924936 Y167.883322 Z-0.125000
G01 X2.508657 Y168.779332 Z-0.125000
G01 X2.358910 Y173.352617 Z-0.125000
G01 X2.681084 Y175.334268 Z-0.125000
G01 X2.550858 Y179.330757 Z-0.125000
G00 Z5.000000

(End cutting path id: polygon3357)


(Start cutting path id: polygon3355)
(Change tool to Default tool)

G00 Z5.000000
G00 X6.107166 Y173.268073

G01 Z-0.125000 F100.0(Penetrate)
G01 X2.977423 Y179.999998 Z-0.125000 F400.000000
G01 X3.108234 Y175.993238 Z-0.125000
G01 X3.529889 Y175.083796 Z-0.125000
G01 X3.678117 Y170.510512 Z-0.125000
G01 X3.352904 Y168.503576 Z-0.125000
G01 X3.504639 Y163.867081 Z-0.125000
G01 X4.296982 Y162.164346 Z-0.125000
G01 X4.883933 Y165.775250 Z-0.125000
G01 X4.793219 Y168.554935 Z-0.125000
G01 X5.305354 Y171.708352 Z-0.125000
G01 X5.709943 Y170.839207 Z-0.125000
G01 X6.107166 Y173.268073 Z-0.125000
G00 Z5.000000

(End cutting path id: polygon3355)


(Start cutting path id: path3351)
(Change tool to Default tool)

G00 Z5.000000
G00 X30.454351 Y31.134364

G01 Z-0.125000 F100.0(Penetrate)
G01 X31.416315 Y37.639522 Z-0.125000 F400.000000
G01 X33.409096 Y37.639522 Z-0.125000
G01 X34.500000 Y35.127691 Z-0.125000
G01 X34.144042 Y28.010181 Z-0.125000
G01 X33.189326 Y30.213070 Z-0.125000
G01 X31.886133 Y30.213070 Z-0.125000
G01 X31.628721 Y28.470828 Z-0.125000
G01 X31.628721 Y27.191604 Z-0.125000
G01 X31.727150 Y25.808083 Z-0.125000
G01 X34.144158 Y18.740351 Z-0.125000
G01 X34.462241 Y14.697245 Z-0.125000
G01 X34.462241 Y7.783589 Z-0.125000
G01 X33.500044 Y1.278431 Z-0.125000
G01 X31.499898 Y1.278431 Z-0.125000
G01 X30.408995 Y3.790261 Z-0.125000
G01 X30.764953 Y10.907771 Z-0.125000
G01 X31.719669 Y8.704883 Z-0.125000
G01 X33.030460 Y8.704883 Z-0.125000
G01 X33.287989 Y10.447124 Z-0.125000
G01 X33.287989 Y11.726348 Z-0.125000
G01 X33.189443 Y13.109869 Z-0.125000
G01 X30.772434 Y20.177601 Z-0.125000
G01 X30.454351 Y24.220707 Z-0.125000
G01 X30.454351 Y31.134364 Z-0.125000
G01 X30.454351 Y31.134364 Z-0.125000
G00 Z5.000000

(End cutting path id: path3351)


(Start cutting path id: path3349)
(Change tool to Default tool)

G00 Z5.000000
G00 X25.741092 Y7.784379

G01 Z-0.125000 F100.0(Penetrate)
G01 X25.741092 Y37.640312 Z-0.125000 F400.000000
G01 X26.915461 Y37.640312 Z-0.125000
G01 X26.915461 Y10.753695 Z-0.125000
G01 X27.218464 Y8.704883 Z-0.125000
G01 X28.392834 Y8.704883 Z-0.125000
G01 X28.696070 Y10.753695 Z-0.125000
G01 X28.696070 Y37.640312 Z-0.125000
G01 X29.870440 Y37.640312 Z-0.125000
G01 X29.870440 Y7.784379 Z-0.125000
G01 X28.900644 Y1.279221 Z-0.125000
G01 X26.711121 Y1.279221 Z-0.125000
G01 X25.741092 Y7.784379 Z-0.125000
G01 X25.741092 Y7.784379 Z-0.125000
G00 Z5.000000

(End cutting path id: path3349)


(Start cutting path id: path3347)
(Change tool to Default tool)

G00 Z5.000000
G00 X23.732296 Y37.640312

G01 Z-0.125000 F100.0(Penetrate)
G01 X24.906782 Y37.640312 Z-0.125000 F400.000000
G01 X24.906782 Y1.278431 Z-0.125000
G01 X23.732296 Y1.278431 Z-0.125000
G01 X23.732296 Y15.976469 Z-0.125000
G01 X21.952037 Y15.976469 Z-0.125000
G01 X21.952037 Y1.278431 Z-0.125000
G01 X20.777434 Y1.278431 Z-0.125000
G01 X20.777434 Y37.640312 Z-0.125000
G01 X21.952037 Y37.640312 Z-0.125000
G01 X21.952037 Y23.402131 Z-0.125000
G01 X23.732296 Y23.402131 Z-0.125000
G01 X23.732296 Y37.640312 Z-0.125000
G01 X23.732296 Y37.640312 Z-0.125000
G00 Z5.000000

(End cutting path id: path3347)


(Start cutting path id: path3345)
(Change tool to Default tool)

G00 Z5.000000
G00 X20.170610 Y5.581490

G01 Z-0.125000 F100.0(Penetrate)
G01 X19.329754 Y-0.000003 Z-0.125000 F400.000000
G01 X17.193187 Y14.799172 Z-0.125000
G01 X17.094758 Y14.799172 Z-0.125000
G01 X17.094758 Y1.278431 Z-0.125000
G01 X15.920271 Y1.278431 Z-0.125000
G01 X15.920271 Y37.640312 Z-0.125000
G01 X19.208529 Y37.640312 Z-0.125000
G01 X20.049619 Y32.005879 Z-0.125000
G01 X20.049619 Y20.431234 Z-0.125000
G01 X19.208529 Y14.799962 Z-0.125000
G01 X18.935920 Y14.799962 Z-0.125000
G01 X18.670559 Y15.671478 Z-0.125000
G01 X18.655479 Y15.517402 Z-0.125000
G01 X18.920607 Y14.238178 Z-0.125000
G01 X20.170610 Y5.581490 Z-0.125000
G01 X20.170610 Y5.581490 Z-0.125000
G00 Z5.000000

(End cutting path id: path3345)


(Start cutting path id: path3345)
(Change tool to Default tool)

G00 Z5.000000
G00 X17.094641 Y30.213860

G01 Z-0.125000 F100.0(Penetrate)
G01 X17.094641 Y22.225624 Z-0.125000 F400.000000
G01 X18.602290 Y22.225624 Z-0.125000
G01 X18.874899 Y24.118780 Z-0.125000
G01 X18.874899 Y28.316752 Z-0.125000
G01 X18.602290 Y30.213070 Z-0.125000
G01 X17.094641 Y30.213070 Z-0.125000
G01 X17.094641 Y30.213860 Z-0.125000
G00 Z5.000000

(End cutting path id: path3345)


(Start cutting path id: path3343)
(Change tool to Default tool)

G00 Z5.000000
G00 X13.729814 Y37.640312

G01 Z-0.125000 F100.0(Penetrate)
G01 X15.464832 Y2.764669 Z-0.125000 F400.000000
G01 X14.358615 Y0.256000 Z-0.125000
G01 X13.949584 Y8.399102 Z-0.125000
G01 X12.244726 Y8.399102 Z-0.125000
G01 X11.873571 Y0.256000 Z-0.125000
G01 X10.767354 Y2.764669 Z-0.125000
G01 X12.502489 Y37.640312 Z-0.125000
G01 X13.729814 Y37.640312 Z-0.125000
G01 X13.729814 Y37.640312 Z-0.125000
G00 Z5.000000

(End cutting path id: path3343)


(Start cutting path id: path3343)
(Change tool to Default tool)

G00 Z5.000000
G00 X13.229836 Y23.813789

G01 Z-0.125000 F100.0(Penetrate)
G01 X13.131407 Y27.600893 Z-0.125000 F400.000000
G01 X13.101013 Y27.600893 Z-0.125000
G01 X13.002584 Y23.813789 Z-0.125000
G01 X12.578239 Y15.312758 Z-0.125000
G01 X13.654297 Y15.312758 Z-0.125000
G01 X13.229836 Y23.813789 Z-0.125000
G01 X13.229836 Y23.813789 Z-0.125000
G00 Z5.000000

(End cutting path id: path3343)


(Start cutting path id: path3339)
(Change tool to Default tool)

G00 Z5.000000
G00 X8.728164 Y37.640312

G01 Z-0.125000 F100.0(Penetrate)
G01 X10.463299 Y2.764669 Z-0.125000 F400.000000
G01 X9.357081 Y0.256000 Z-0.125000
G01 X8.948051 Y8.399102 Z-0.125000
G01 X7.243076 Y8.399102 Z-0.125000
G01 X6.871921 Y0.256000 Z-0.125000
G01 X5.765704 Y2.764669 Z-0.125000
G01 X7.500839 Y37.640312 Z-0.125000
G01 X8.728164 Y37.640312 Z-0.125000
G01 X8.728164 Y37.640312 Z-0.125000
G00 Z5.000000

(End cutting path id: path3339)


(Start cutting path id: path3339)
(Change tool to Default tool)

G00 Z5.000000
G00 X8.228186 Y23.813789

G01 Z-0.125000 F100.0(Penetrate)
G01 X8.129757 Y27.600893 Z-0.125000 F400.000000
G01 X8.099363 Y27.600893 Z-0.125000
G01 X8.000934 Y23.813789 Z-0.125000
G01 X7.576589 Y15.312758 Z-0.125000
G01 X8.652647 Y15.312758 Z-0.125000
G01 X8.228186 Y23.813789 Z-0.125000
G01 X8.228186 Y23.813789 Z-0.125000
G00 Z5.000000

(End cutting path id: path3339)


(Start cutting path id: path3335)
(Change tool to Default tool)

G00 Z5.000000
G00 X24.293762 Y87.734689

G01 Z-0.125000 F100.0(Penetrate)
G01 X28.028926 Y87.734689 Z-0.125000 F400.000000
G01 X28.028926 Y80.309027 Z-0.125000
G01 X25.468366 Y80.309027 Z-0.125000
G01 X25.468366 Y74.059872 Z-0.125000
G01 X27.710961 Y74.059872 Z-0.125000
G01 X27.710961 Y66.636581 Z-0.125000
G01 X25.468366 Y66.636581 Z-0.125000
G01 X25.468366 Y58.800050 Z-0.125000
G01 X28.028926 Y58.800050 Z-0.125000
G01 X28.028926 Y51.374388 Z-0.125000
G01 X24.293762 Y51.374388 Z-0.125000
G01 X24.293762 Y87.734689 Z-0.125000
G01 X24.293762 Y87.734689 Z-0.125000
G00 Z5.000000

(End cutting path id: path3335)


(Start cutting path id: path3333)
(Change tool to Default tool)

G00 Z5.000000
G00 X22.959709 Y63.717833

G01 Z-0.125000 F100.0(Penetrate)
G01 X23.762689 Y58.287254 Z-0.125000 F400.000000
G01 X22.739938 Y51.374388 Z-0.125000
G01 X20.497343 Y51.374388 Z-0.125000
G01 X19.527547 Y57.929325 Z-0.125000
G01 X19.527547 Y81.180543 Z-0.125000
G01 X20.497343 Y87.735479 Z-0.125000
G01 X22.686866 Y87.735479 Z-0.125000
G01 X23.656662 Y81.180543 Z-0.125000
G01 X23.656662 Y74.417802 Z-0.125000
G01 X22.482409 Y74.417802 Z-0.125000
G01 X22.482409 Y78.261005 Z-0.125000
G01 X22.179056 Y80.309027 Z-0.125000
G01 X21.004803 Y80.309027 Z-0.125000
G01 X20.701800 Y78.261005 Z-0.125000
G01 X20.701800 Y60.848073 Z-0.125000
G01 X21.004803 Y58.800050 Z-0.125000
G01 X22.232362 Y58.800050 Z-0.125000
G01 X22.959709 Y63.717833 Z-0.125000
G01 X22.959709 Y63.717833 Z-0.125000
G00 Z5.000000

(End cutting path id: path3333)


(Start cutting path id: path3331)
(Change tool to Default tool)

G00 Z5.000000
G00 X17.556860 Y87.734689

G01 Z-0.125000 F100.0(Penetrate)
G01 X19.291879 Y52.859047 Z-0.125000 F400.000000
G01 X18.185661 Y50.350377 Z-0.125000
G01 X17.776631 Y58.493479 Z-0.125000
G01 X16.071773 Y58.493479 Z-0.125000
G01 X15.700618 Y50.350377 Z-0.125000
G01 X14.594400 Y52.859047 Z-0.125000
G01 X16.329535 Y87.734689 Z-0.125000
G01 X17.556860 Y87.734689 Z-0.125000
G01 X17.556860 Y87.734689 Z-0.125000
G00 Z5.000000

(End cutting path id: path3331)


(Start cutting path id: path3331)
(Change tool to Default tool)

G00 Z5.000000
G00 X17.056882 Y73.908167

G01 Z-0.125000 F100.0(Penetrate)
G01 X16.958453 Y77.695270 Z-0.125000 F400.000000
G01 X16.928059 Y77.695270 Z-0.125000
G01 X16.829630 Y73.908167 Z-0.125000
G01 X16.405286 Y65.407135 Z-0.125000
G01 X17.481343 Y65.407135 Z-0.125000
G01 X17.056882 Y73.908167 Z-0.125000
G01 X17.056882 Y73.908167 Z-0.125000
G00 Z5.000000

(End cutting path id: path3331)


(Start cutting path id: path3327)
(Change tool to Default tool)

G00 Z5.000000
G00 X11.941723 Y51.373598

G01 Z-0.125000 F100.0(Penetrate)
G01 X10.767120 Y51.373598 Z-0.125000 F400.000000
G01 X10.767120 Y87.734689 Z-0.125000
G01 X13.926672 Y87.734689 Z-0.125000
G01 X14.896468 Y81.229531 Z-0.125000
G01 X14.896468 Y69.503180 Z-0.125000
G01 X13.926672 Y62.998022 Z-0.125000
G01 X11.941723 Y62.998022 Z-0.125000
G01 X11.941723 Y51.373598 Z-0.125000
G01 X11.941723 Y51.373598 Z-0.125000
G00 Z5.000000

(End cutting path id: path3327)


(Start cutting path id: path3327)
(Change tool to Default tool)

G00 Z5.000000
G00 X11.941723 Y80.309027

G01 Z-0.125000 F100.0(Penetrate)
G01 X11.941723 Y70.423684 Z-0.125000 F400.000000
G01 X13.418979 Y70.423684 Z-0.125000
G01 X13.721981 Y72.471707 Z-0.125000
G01 X13.721981 Y78.261005 Z-0.125000
G01 X13.418979 Y80.309027 Z-0.125000
G01 X11.941723 Y80.309027 Z-0.125000
G01 X11.941723 Y80.309027 Z-0.125000
G00 Z5.000000

(End cutting path id: path3327)


(Start cutting path id: path3323)
(Change tool to Default tool)

G00 Z5.000000
G00 X6.038546 Y81.229531

G01 Z-0.125000 F100.0(Penetrate)
G01 X7.000510 Y87.734689 Z-0.125000 F400.000000
G01 X8.993291 Y87.734689 Z-0.125000
G01 X10.084195 Y85.222859 Z-0.125000
G01 X9.728236 Y78.105349 Z-0.125000
G01 X8.773521 Y80.308237 Z-0.125000
G01 X7.470445 Y80.308237 Z-0.125000
G01 X7.212916 Y78.565996 Z-0.125000
G01 X7.212916 Y77.287562 Z-0.125000
G01 X7.311462 Y75.903250 Z-0.125000
G01 X9.728353 Y68.835518 Z-0.125000
G01 X10.046436 Y64.792412 Z-0.125000
G01 X10.046436 Y57.879546 Z-0.125000
G01 X9.084239 Y51.374388 Z-0.125000
G01 X7.084093 Y51.374388 Z-0.125000
G01 X5.993189 Y53.885428 Z-0.125000
G01 X6.349148 Y61.002939 Z-0.125000
G01 X7.303864 Y58.800840 Z-0.125000
G01 X8.614538 Y58.800840 Z-0.125000
G01 X8.872067 Y60.542292 Z-0.125000
G01 X8.872067 Y61.821515 Z-0.125000
G01 X8.773521 Y63.205037 Z-0.125000
G01 X6.356629 Y70.272769 Z-0.125000
G01 X6.038546 Y74.315875 Z-0.125000
G01 X6.038546 Y81.229531 Z-0.125000
G01 X6.038546 Y81.229531 Z-0.125000
G00 Z5.000000

(End cutting path id: path3323)


(Start cutting path id: path3319)
(Change tool to Default tool)

G00 Z5.000000
G00 X21.512613 Y99.887711

G01 Z-0.125000 F100.0(Penetrate)
G01 X20.338010 Y99.887711 Z-0.125000 F400.000000
G01 X20.338010 Y136.246432 Z-0.125000
G01 X21.391272 Y136.246432 Z-0.125000
G01 X23.156801 Y117.145777 Z-0.125000
G01 X23.353776 Y113.764802 Z-0.125000
G01 X23.383936 Y113.764802 Z-0.125000
G01 X23.300587 Y117.196346 Z-0.125000
G01 X23.300587 Y136.246432 Z-0.125000
G01 X24.475073 Y136.246432 Z-0.125000
G01 X24.475073 Y99.886921 Z-0.125000
G01 X23.421928 Y99.886921 Z-0.125000
G01 X21.656633 Y118.987575 Z-0.125000
G01 X21.459307 Y122.368551 Z-0.125000
G01 X21.429147 Y122.368551 Z-0.125000
G01 X21.512613 Y118.937007 Z-0.125000
G01 X21.512613 Y99.887711 Z-0.125000
G01 X21.512613 Y99.887711 Z-0.125000
G00 Z5.000000

(End cutting path id: path3319)


(Start cutting path id: path3317)
(Change tool to Default tool)

G00 Z5.000000
G00 X15.995905 Y136.246432

G01 Z-0.125000 F100.0(Penetrate)
G01 X19.731186 Y136.246432 Z-0.125000 F400.000000
G01 X19.731186 Y128.820770 Z-0.125000
G01 X17.170508 Y128.820770 Z-0.125000
G01 X17.170508 Y122.573195 Z-0.125000
G01 X19.413103 Y122.573195 Z-0.125000
G01 X19.413103 Y115.149113 Z-0.125000
G01 X17.170508 Y115.149113 Z-0.125000
G01 X17.170508 Y107.313373 Z-0.125000
G01 X19.731186 Y107.313373 Z-0.125000
G01 X19.731186 Y99.887711 Z-0.125000
G01 X15.995905 Y99.887711 Z-0.125000
G01 X15.995905 Y136.246432 Z-0.125000
G01 X15.995905 Y136.246432 Z-0.125000
G00 Z5.000000

(End cutting path id: path3317)


(Start cutting path id: path3315)
(Change tool to Default tool)

G00 Z5.000000
G00 X12.358469 Y99.887711

G01 Z-0.125000 F100.0(Penetrate)
G01 X11.183982 Y99.887711 Z-0.125000 F400.000000
G01 X11.183982 Y136.246432 Z-0.125000
G01 X14.343651 Y136.246432 Z-0.125000
G01 X15.313447 Y129.742854 Z-0.125000
G01 X15.313447 Y118.015713 Z-0.125000
G01 X14.343651 Y111.512135 Z-0.125000
G01 X12.358586 Y111.512135 Z-0.125000
G01 X12.358586 Y99.887711 Z-0.125000
G01 X12.358469 Y99.887711 Z-0.125000
G00 Z5.000000

(End cutting path id: path3315)


(Start cutting path id: path3315)
(Change tool to Default tool)

G00 Z5.000000
G00 X12.358469 Y128.820770

G01 Z-0.125000 F100.0(Penetrate)
G01 X12.358469 Y118.937797 Z-0.125000 F400.000000
G01 X13.835724 Y118.937797 Z-0.125000
G01 X14.138727 Y120.985820 Z-0.125000
G01 X14.138727 Y126.772747 Z-0.125000
G01 X13.835724 Y128.820770 Z-0.125000
G01 X12.358469 Y128.820770 Z-0.125000
G01 X12.358469 Y128.820770 Z-0.125000
G00 Z5.000000

(End cutting path id: path3315)


(Start cutting path id: path3311)
(Change tool to Default tool)

G00 Z5.000000
G00 X9.448029 Y136.246432

G01 Z-0.125000 F100.0(Penetrate)
G01 X10.501174 Y129.793422 Z-0.125000 F400.000000
G01 X10.501174 Y106.339930 Z-0.125000
G01 X9.448029 Y99.886921 Z-0.125000
G01 X7.197836 Y99.886921 Z-0.125000
G01 X6.144691 Y106.339930 Z-0.125000
G01 X6.144691 Y129.793422 Z-0.125000
G01 X7.197836 Y136.246432 Z-0.125000
G01 X9.448029 Y136.246432 Z-0.125000
G01 X9.448029 Y136.246432 Z-0.125000
G00 Z5.000000

(End cutting path id: path3311)


(Start cutting path id: path3311)
(Change tool to Default tool)

G00 Z5.000000
G00 X8.978094 Y128.820770

G01 Z-0.125000 F100.0(Penetrate)
G01 X7.667420 Y128.820770 Z-0.125000 F400.000000
G01 X7.318944 Y126.670820 Z-0.125000
G01 X7.318944 Y109.463323 Z-0.125000
G01 X7.667420 Y107.313373 Z-0.125000
G01 X8.978094 Y107.313373 Z-0.125000
G01 X9.326571 Y109.463323 Z-0.125000
G01 X9.326571 Y126.670820 Z-0.125000
G01 X8.978094 Y128.820770 Z-0.125000
G01 X8.978094 Y128.820770 Z-0.125000
G00 Z5.000000

(End cutting path id: path3311)


(Footer)
M5
G00 X0.0000 Y0.0000
M2
(Using default footer. To add your own footer create file "footer" in the output dir.)
(end)
%