%
(Header)
(Generated by gcodetools from Inkscape.)
(Using default header. To add your own header create file "header" in the output dir.)
M3
(Header end.)
G21 (All units in mm)

(Start cutting path id: polygon2998-0-1)
(Change tool to Default tool)

G00 Z5.000000
G00 X27.180349 Y40.165865

G01 Z-0.125000 F100.0(Penetrate)
G01 X25.514353 Y40.753820 Z-0.125000 F400.000000
G01 X24.404713 Y39.800940 Z-0.125000
G01 X24.574955 Y38.888957 Z-0.125000
G01 X23.472615 Y37.944852 Z-0.125000
G01 X22.602479 Y38.251656 Z-0.125000
G01 X21.634951 Y37.421015 Z-0.125000
G01 X28.088548 Y35.148664 Z-0.125000
G01 X27.891582 Y36.241673 Z-0.125000
G01 X27.054347 Y36.537446 Z-0.125000
G01 X26.789743 Y37.963269 Z-0.125000
G01 X27.474024 Y38.549460 Z-0.125000
G01 X27.180349 Y40.165865 Z-0.125000
G00 Z5.000000

(End cutting path id: polygon2998-0-1)


(Start cutting path id: polygon2996-8-1)
(Change tool to Default tool)

G00 Z5.000000
G00 X24.890071 Y44.040147

G01 Z-0.125000 F100.0(Penetrate)
G01 X26.197316 Y45.158318 Z-0.125000 F400.000000
G01 X25.938713 Y46.582201 Z-0.125000
G01 X25.085321 Y46.883498 Z-0.125000
G01 X24.818094 Y48.306625 Z-0.125000
G01 X25.517777 Y48.905539 Z-0.125000
G01 X25.281283 Y50.207335 Z-0.125000
G01 X20.068610 Y45.740320 Z-0.125000
G01 X21.386354 Y45.275974 Z-0.125000
G01 X22.043588 Y45.838037 Z-0.125000
G01 X23.377551 Y45.366017 Z-0.125000
G01 X23.535034 Y44.517238 Z-0.125000
G01 X24.890071 Y44.040147 Z-0.125000
G00 Z5.000000

(End cutting path id: polygon2996-8-1)


(Start cutting path id: polygon2994-4-3)
(Change tool to Default tool)

G00 Z5.000000
G00 X24.909383 Y41.444997

G01 Z-0.125000 F100.0(Penetrate)
G01 X24.587462 Y43.175138 Z-0.125000 F400.000000
G01 X23.247931 Y43.646256 Z-0.125000
G01 X22.558597 Y43.058943 Z-0.125000
G01 X21.227478 Y43.528619 Z-0.125000
G01 X21.061903 Y44.419690 Z-0.125000
G01 X19.765735 Y44.875069 Z-0.125000
G01 X21.027835 Y38.110645 Z-0.125000
G01 X22.008195 Y38.950845 Z-0.125000
G01 X21.839433 Y39.852113 Z-0.125000
G01 X22.942137 Y40.794429 Z-0.125000
G01 X23.803480 Y40.491442 Z-0.125000
G01 X24.909383 Y41.444997 Z-0.125000
G00 Z5.000000

(End cutting path id: polygon2994-4-3)


(Start cutting path id: polygon2992-8-8)
(Change tool to Default tool)

G00 Z5.000000
G00 X32.465699 Y39.528207

G01 Z-0.125000 F100.0(Penetrate)
G01 X31.098330 Y40.013865 Z-0.125000 F400.000000
G01 X30.924541 Y40.952818 Z-0.125000
G01 X29.406922 Y41.492942 Z-0.125000
G01 X28.079786 Y40.354878 Z-0.125000
G01 X28.371296 Y38.736220 Z-0.125000
G01 X29.257609 Y38.424597 Z-0.125000
G01 X29.521932 Y37.000409 Z-0.125000
G01 X28.799160 Y36.378498 Z-0.125000
G01 X28.991709 Y35.305940 Z-0.125000
G01 X34.216000 Y39.782557 Z-0.125000
G01 X33.185865 Y40.146836 Z-0.125000
G01 X32.465699 Y39.528207 Z-0.125000
G00 Z5.000000

(End cutting path id: polygon2992-8-8)


(Start cutting path id: polygon2990-5-1)
(Change tool to Default tool)

G00 Z5.000000
G00 X27.091558 Y45.363496

G01 Z-0.125000 F100.0(Penetrate)
G01 X28.778084 Y44.767599 Z-0.125000 F400.000000
G01 X29.900463 Y45.731875 Z-0.125000
G01 X29.733037 Y46.631577 Z-0.125000
G01 X30.833989 Y47.577715 Z-0.125000
G01 X31.694044 Y47.273244 Z-0.125000
G01 X32.656742 Y48.099013 Z-0.125000
G01 X26.181398 Y50.380837 Z-0.125000
G01 X26.420238 Y49.072262 Z-0.125000
G01 X27.287538 Y48.768898 Z-0.125000
G01 X27.551151 Y47.342146 Z-0.125000
G01 X26.842478 Y46.736129 Z-0.125000
G01 X27.091558 Y45.363496 Z-0.125000
G00 Z5.000000

(End cutting path id: polygon2990-5-1)


(Start cutting path id: polygon2988-4-4)
(Change tool to Default tool)

G00 Z5.000000
G00 X29.377274 Y44.073323

G01 Z-0.125000 F100.0(Penetrate)
G01 X29.696561 Y42.361415 Z-0.125000 F400.000000
G01 X31.263775 Y41.806512 Z-0.125000
G01 X31.933367 Y42.381055 Z-0.125000
G01 X33.301575 Y41.897534 Z-0.125000
G01 X33.464835 Y41.023180 Z-0.125000
G01 X34.521281 Y40.645726 Z-0.125000
G01 X33.261863 Y47.409405 Z-0.125000
G01 X32.296963 Y46.581265 Z-0.125000
G01 X32.465903 Y45.669674 Z-0.125000
G01 X31.363587 Y44.726079 Z-0.125000
G01 X30.493462 Y45.032492 Z-0.125000
G01 X29.377274 Y44.073323 Z-0.125000
G00 Z5.000000

(End cutting path id: polygon2988-4-4)


(Start cutting path id: polygon2998-7)
(Change tool to Default tool)

G00 Z5.000000
G00 X42.042453 Y38.085296

G01 Z-0.125000 F100.0(Penetrate)
G01 X41.777849 Y39.511120 Z-0.125000 F400.000000
G01 X42.462130 Y40.097310 Z-0.125000
G01 X42.168455 Y41.713716 Z-0.125000
G01 X40.502459 Y42.301670 Z-0.125000
G01 X39.392820 Y41.348790 Z-0.125000
G01 X39.563061 Y40.436807 Z-0.125000
G01 X38.460721 Y39.492703 Z-0.125000
G01 X37.590585 Y39.799507 Z-0.125000
G01 X36.623057 Y38.968866 Z-0.125000
G01 X43.076655 Y36.696514 Z-0.125000
G01 X42.879688 Y37.789523 Z-0.125000
G01 X42.042453 Y38.085296 Z-0.125000
G00 Z5.000000

(End cutting path id: polygon2998-7)


(Start cutting path id: polygon2996-3)
(Change tool to Default tool)

G00 Z5.000000
G00 X37.031694 Y47.385888

G01 Z-0.125000 F100.0(Penetrate)
G01 X38.365657 Y46.913867 Z-0.125000 F400.000000
G01 X38.523140 Y46.065089 Z-0.125000
G01 X39.878177 Y45.587998 Z-0.125000
G01 X41.185422 Y46.706169 Z-0.125000
G01 X40.926819 Y48.130051 Z-0.125000
G01 X40.073427 Y48.431348 Z-0.125000
G01 X39.806201 Y49.854475 Z-0.125000
G01 X40.505883 Y50.453390 Z-0.125000
G01 X40.269389 Y51.755185 Z-0.125000
G01 X35.056716 Y47.288171 Z-0.125000
G01 X36.374460 Y46.823824 Z-0.125000
G01 X37.031694 Y47.385888 Z-0.125000
G00 Z5.000000

(End cutting path id: polygon2996-3)


(Start cutting path id: polygon2994-5)
(Change tool to Default tool)

G00 Z5.000000
G00 X36.827539 Y41.399964

G01 Z-0.125000 F100.0(Penetrate)
G01 X37.930243 Y42.342279 Z-0.125000 F400.000000
G01 X38.791586 Y42.039292 Z-0.125000
G01 X39.897489 Y42.992848 Z-0.125000
G01 X39.575568 Y44.722988 Z-0.125000
G01 X38.236037 Y45.194106 Z-0.125000
G01 X37.546703 Y44.606793 Z-0.125000
G01 X36.215585 Y45.076470 Z-0.125000
G01 X36.050009 Y45.967540 Z-0.125000
G01 X34.753841 Y46.422919 Z-0.125000
G01 X36.015941 Y39.658495 Z-0.125000
G01 X36.996301 Y40.498696 Z-0.125000
G01 X36.827539 Y41.399964 Z-0.125000
G00 Z5.000000

(End cutting path id: polygon2994-5)


(Start cutting path id: polygon2992-6)
(Change tool to Default tool)

G00 Z5.000000
G00 X43.979815 Y36.853790

G01 Z-0.125000 F100.0(Penetrate)
G01 X49.204106 Y41.330408 Z-0.125000 F400.000000
G01 X48.173971 Y41.694686 Z-0.125000
G01 X47.453805 Y41.076057 Z-0.125000
G01 X46.086436 Y41.561715 Z-0.125000
G01 X45.912647 Y42.500668 Z-0.125000
G01 X44.395029 Y43.040792 Z-0.125000
G01 X43.067892 Y41.902728 Z-0.125000
G01 X43.359402 Y40.284071 Z-0.125000
G01 X44.245715 Y39.972447 Z-0.125000
G01 X44.510038 Y38.548259 Z-0.125000
G01 X43.787266 Y37.926348 Z-0.125000
G01 X43.979815 Y36.853790 Z-0.125000
G00 Z5.000000

(End cutting path id: polygon2992-6)


(Start cutting path id: polygon2990-7)
(Change tool to Default tool)

G00 Z5.000000
G00 X42.275644 Y50.316748

G01 Z-0.125000 F100.0(Penetrate)
G01 X42.539257 Y48.889997 Z-0.125000 F400.000000
G01 X41.830584 Y48.283980 Z-0.125000
G01 X42.079664 Y46.911346 Z-0.125000
G01 X43.766190 Y46.315449 Z-0.125000
G01 X44.888569 Y47.279725 Z-0.125000
G01 X44.721143 Y48.179427 Z-0.125000
G01 X45.822095 Y49.125565 Z-0.125000
G01 X46.682150 Y48.821094 Z-0.125000
G01 X47.644849 Y49.646864 Z-0.125000
G01 X41.169504 Y51.928687 Z-0.125000
G01 X41.408344 Y50.620112 Z-0.125000
G01 X42.275644 Y50.316748 Z-0.125000
G00 Z5.000000

(End cutting path id: polygon2990-7)


(Start cutting path id: polygon2988-9)
(Change tool to Default tool)

G00 Z5.000000
G00 X47.454009 Y47.217525

G01 Z-0.125000 F100.0(Penetrate)
G01 X46.351693 Y46.273930 Z-0.125000 F400.000000
G01 X45.481568 Y46.580343 Z-0.125000
G01 X44.365380 Y45.621173 Z-0.125000
G01 X44.684668 Y43.909265 Z-0.125000
G01 X46.251881 Y43.354362 Z-0.125000
G01 X46.921473 Y43.928906 Z-0.125000
G01 X48.289681 Y43.445384 Z-0.125000
G01 X48.452941 Y42.571030 Z-0.125000
G01 X49.509388 Y42.193577 Z-0.125000
G01 X48.249969 Y48.957255 Z-0.125000
G01 X47.285069 Y48.129115 Z-0.125000
G01 X47.454009 Y47.217525 Z-0.125000
G00 Z5.000000

(End cutting path id: polygon2988-9)


(Start cutting path id: polygon2998-0-8)
(Change tool to Default tool)

G00 Z5.000000
G00 X32.753983 Y9.165306

G01 Z-0.125000 F100.0(Penetrate)
G01 X37.806348 Y13.778993 Z-0.125000 F400.000000
G01 X36.750005 Y14.121926 Z-0.125000
G01 X36.093692 Y13.523847 Z-0.125000
G01 X34.712078 Y13.964449 Z-0.125000
G01 X34.518839 Y14.844517 Z-0.125000
G01 X32.955528 Y15.349561 Z-0.125000
G01 X31.650073 Y14.159175 Z-0.125000
G01 X31.965463 Y12.730956 Z-0.125000
G01 X32.849640 Y12.450016 Z-0.125000
G01 X33.160746 Y11.032378 Z-0.125000
G01 X32.479164 Y10.410516 Z-0.125000
G01 X32.753983 Y9.165306 Z-0.125000
G00 Z5.000000

(End cutting path id: polygon2998-0-8)


(Start cutting path id: polygon2996-8-3)
(Change tool to Default tool)

G00 Z5.000000
G00 X23.208596 Y18.421184

G01 Z-0.125000 F100.0(Penetrate)
G01 X24.682020 Y11.716321 Z-0.125000 F400.000000
G01 X25.713968 Y12.658207 Z-0.125000
G01 X25.529211 Y13.503037 Z-0.125000
G01 X26.575586 Y14.455591 Z-0.125000
G01 X27.398032 Y14.193276 Z-0.125000
G01 X28.458834 Y15.162006 Z-0.125000
G01 X28.091156 Y16.842484 Z-0.125000
G01 X26.714088 Y17.287458 Z-0.125000
G01 X26.045272 Y16.677750 Z-0.125000
G01 X24.664795 Y17.114767 Z-0.125000
G01 X24.467621 Y18.014421 Z-0.125000
G01 X23.208596 Y18.421184 Z-0.125000
G00 Z5.000000

(End cutting path id: polygon2996-8-3)


(Start cutting path id: polygon2994-4-7)
(Change tool to Default tool)

G00 Z5.000000
G00 X25.301434 Y11.040510

G01 Z-0.125000 F100.0(Penetrate)
G01 X31.859313 Y8.956153 Z-0.125000 F400.000000
G01 X31.582133 Y10.217190 Z-0.125000
G01 X30.708099 Y10.494369 Z-0.125000
G01 X30.398742 Y11.911483 Z-0.125000
G01 X31.072805 Y12.527399 Z-0.125000
G01 X30.755054 Y13.952645 Z-0.125000
G01 X29.078160 Y14.486544 Z-0.125000
G01 X28.029949 Y13.528656 Z-0.125000
G01 X28.221789 Y12.643605 Z-0.125000
G01 X27.178824 Y11.692450 Z-0.125000
G01 X26.315282 Y11.967619 Z-0.125000
G01 X25.301434 Y11.040510 Z-0.125000
G00 Z5.000000

(End cutting path id: polygon2994-4-7)


(Start cutting path id: polygon2992-8-5)
(Change tool to Default tool)

G00 Z5.000000
G00 X35.471743 Y16.357376

G01 Z-0.125000 F100.0(Penetrate)
G01 X36.851783 Y15.917298 Z-0.125000 F400.000000
G01 X37.058313 Y14.986429 Z-0.125000
G01 X38.094545 Y14.649267 Z-0.125000
G01 X36.618148 Y21.368907 Z-0.125000
G01 X35.810304 Y20.633201 Z-0.125000
G01 X36.015172 Y19.706179 Z-0.125000
G01 X34.940992 Y18.730629 Z-0.125000
G01 X34.031370 Y19.021186 Z-0.125000
G01 X32.838186 Y17.938961 Z-0.125000
G01 X33.213996 Y16.231552 Z-0.125000
G01 X34.778269 Y15.723535 Z-0.125000
G01 X35.471743 Y16.357376 Z-0.125000
G00 Z5.000000

(End cutting path id: polygon2992-8-5)


(Start cutting path id: polygon2990-5-8)
(Change tool to Default tool)

G00 Z5.000000
G00 X28.552043 Y23.924819

G01 Z-0.125000 F100.0(Penetrate)
G01 X23.481054 Y19.296442 Z-0.125000 F400.000000
G01 X24.747162 Y18.888542 Z-0.125000
G01 X25.424372 Y19.509530 Z-0.125000
G01 X26.806336 Y19.067616 Z-0.125000
G01 X27.005521 Y18.156683 Z-0.125000
G01 X28.332923 Y17.727535 Z-0.125000
G01 X29.655079 Y18.932262 Z-0.125000
G01 X29.335666 Y20.377094 Z-0.125000
G01 X28.463643 Y20.654710 Z-0.125000
G01 X28.150089 Y22.072087 Z-0.125000
G01 X28.824851 Y22.686167 Z-0.125000
G01 X28.552043 Y23.924819 Z-0.125000
G00 Z5.000000

(End cutting path id: polygon2990-5-8)


(Start cutting path id: polygon2988-4-3)
(Change tool to Default tool)

G00 Z5.000000
G00 X36.001707 Y22.045855

G01 Z-0.125000 F100.0(Penetrate)
G01 X29.445751 Y24.132223 Z-0.125000 F400.000000
G01 X29.719608 Y22.890510 Z-0.125000
G01 X30.602824 Y22.608609 Z-0.125000
G01 X30.913492 Y21.191232 Z-0.125000
G01 X30.232260 Y20.569196 Z-0.125000
G01 X30.550098 Y19.132233 Z-0.125000
G01 X32.209679 Y18.604630 Z-0.125000
G01 X33.439325 Y19.723579 Z-0.125000
G01 X33.249409 Y20.585197 Z-0.125000
G01 X34.322103 Y21.562496 Z-0.125000
G01 X35.169818 Y21.293186 Z-0.125000
G01 X36.001707 Y22.045855 Z-0.125000
G00 Z5.000000

(End cutting path id: polygon2988-4-3)


(Start cutting path id: polygon2998-4)
(Change tool to Default tool)

G00 Z5.000000
G00 X38.568402 Y26.390422

G01 Z-0.125000 F100.0(Penetrate)
G01 X38.879508 Y24.972784 Z-0.125000 F400.000000
G01 X38.197925 Y24.350922 Z-0.125000
G01 X38.472744 Y23.105712 Z-0.125000
G01 X43.525109 Y27.719398 Z-0.125000
G01 X42.468766 Y28.062332 Z-0.125000
G01 X41.812454 Y27.464253 Z-0.125000
G01 X40.430840 Y27.904855 Z-0.125000
G01 X40.237601 Y28.784923 Z-0.125000
G01 X38.674290 Y29.289967 Z-0.125000
G01 X37.368834 Y28.099580 Z-0.125000
G01 X37.684225 Y26.671362 Z-0.125000
G01 X38.568402 Y26.390422 Z-0.125000
G00 Z5.000000

(End cutting path id: polygon2998-4)


(Start cutting path id: polygon2996-84)
(Change tool to Default tool)

G00 Z5.000000
G00 X31.764034 Y30.618156

G01 Z-0.125000 F100.0(Penetrate)
G01 X30.383556 Y31.055173 Z-0.125000 F400.000000
G01 X30.186383 Y31.954827 Z-0.125000
G01 X28.927357 Y32.361590 Z-0.125000
G01 X30.400782 Y25.656727 Z-0.125000
G01 X31.432730 Y26.598613 Z-0.125000
G01 X31.247972 Y27.443443 Z-0.125000
G01 X32.294347 Y28.395997 Z-0.125000
G01 X33.116793 Y28.133681 Z-0.125000
G01 X34.177596 Y29.102411 Z-0.125000
G01 X33.809917 Y30.782890 Z-0.125000
G01 X32.432850 Y31.227864 Z-0.125000
G01 X31.764034 Y30.618156 Z-0.125000
G00 Z5.000000

(End cutting path id: polygon2996-84)


(Start cutting path id: polygon2994-0)
(Change tool to Default tool)

G00 Z5.000000
G00 X33.940550 Y26.584011

G01 Z-0.125000 F100.0(Penetrate)
G01 X32.897585 Y25.632856 Z-0.125000 F400.000000
G01 X32.034043 Y25.908025 Z-0.125000
G01 X31.020195 Y24.980915 Z-0.125000
G01 X37.578075 Y22.896559 Z-0.125000
G01 X37.300895 Y24.157595 Z-0.125000
G01 X36.426861 Y24.434775 Z-0.125000
G01 X36.117504 Y25.851889 Z-0.125000
G01 X36.791566 Y26.467805 Z-0.125000
G01 X36.473815 Y27.893051 Z-0.125000
G01 X34.796922 Y28.426950 Z-0.125000
G01 X33.748710 Y27.469062 Z-0.125000
G01 X33.940550 Y26.584011 Z-0.125000
G00 Z5.000000

(End cutting path id: polygon2994-0)


(Start cutting path id: polygon2992-5)
(Change tool to Default tool)

G00 Z5.000000
G00 X38.556947 Y31.879367

G01 Z-0.125000 F100.0(Penetrate)
G01 X38.932758 Y30.171958 Z-0.125000 F400.000000
G01 X40.497030 Y29.663941 Z-0.125000
G01 X41.190504 Y30.297782 Z-0.125000
G01 X42.570544 Y29.857704 Z-0.125000
G01 X42.777074 Y28.926835 Z-0.125000
G01 X43.813306 Y28.589673 Z-0.125000
G01 X42.336909 Y35.309313 Z-0.125000
G01 X41.529066 Y34.573606 Z-0.125000
G01 X41.733934 Y33.646585 Z-0.125000
G01 X40.659753 Y32.671034 Z-0.125000
G01 X39.750132 Y32.961592 Z-0.125000
G01 X38.556947 Y31.879367 Z-0.125000
G00 Z5.000000

(End cutting path id: polygon2992-5)


(Start cutting path id: polygon2990-58)
(Change tool to Default tool)

G00 Z5.000000
G00 X34.182405 Y34.595116

G01 Z-0.125000 F100.0(Penetrate)
G01 X33.868851 Y36.012493 Z-0.125000 F400.000000
G01 X34.543613 Y36.626572 Z-0.125000
G01 X34.270805 Y37.865225 Z-0.125000
G01 X29.199815 Y33.236848 Z-0.125000
G01 X30.465923 Y32.828948 Z-0.125000
G01 X31.143134 Y33.449936 Z-0.125000
G01 X32.525097 Y33.008022 Z-0.125000
G01 X32.724282 Y32.097089 Z-0.125000
G01 X34.051684 Y31.667941 Z-0.125000
G01 X35.373840 Y32.872667 Z-0.125000
G01 X35.054428 Y34.317499 Z-0.125000
G01 X34.182405 Y34.595116 Z-0.125000
G00 Z5.000000

(End cutting path id: polygon2990-58)


(Start cutting path id: polygon2988-0)
(Change tool to Default tool)

G00 Z5.000000
G00 X38.968170 Y34.525603

G01 Z-0.125000 F100.0(Penetrate)
G01 X40.040864 Y35.502902 Z-0.125000 F400.000000
G01 X40.888579 Y35.233591 Z-0.125000
G01 X41.720468 Y35.986261 Z-0.125000
G01 X35.164513 Y38.072628 Z-0.125000
G01 X35.438370 Y36.830916 Z-0.125000
G01 X36.321585 Y36.549014 Z-0.125000
G01 X36.632253 Y35.131638 Z-0.125000
G01 X35.951021 Y34.509601 Z-0.125000
G01 X36.268860 Y33.072639 Z-0.125000
G01 X37.928440 Y32.545036 Z-0.125000
G01 X39.158086 Y33.663985 Z-0.125000
G01 X38.968170 Y34.525603 Z-0.125000
G00 Z5.000000

(End cutting path id: polygon2988-0)


(Start cutting path id: polygon2998-0)
(Change tool to Default tool)

G00 Z5.000000
G00 X17.697724 Y13.437410

G01 Z-0.125000 F100.0(Penetrate)
G01 X16.392269 Y12.247024 Z-0.125000 F400.000000
G01 X16.707659 Y10.818805 Z-0.125000
G01 X17.591836 Y10.537866 Z-0.125000
G01 X17.902942 Y9.120227 Z-0.125000
G01 X17.221360 Y8.498365 Z-0.125000
G01 X17.496179 Y7.253155 Z-0.125000
G01 X22.548544 Y11.866842 Z-0.125000
G01 X21.492201 Y12.209775 Z-0.125000
G01 X20.835888 Y11.611696 Z-0.125000
G01 X19.454274 Y12.052298 Z-0.125000
G01 X19.261035 Y12.932366 Z-0.125000
G01 X17.697724 Y13.437410 Z-0.125000
G00 Z5.000000

(End cutting path id: polygon2998-0)


(Start cutting path id: polygon2996-8)
(Change tool to Default tool)

G00 Z5.000000
G00 X13.201030 Y13.249855

G01 Z-0.125000 F100.0(Penetrate)
G01 X12.833352 Y14.930333 Z-0.125000 F400.000000
G01 X11.456284 Y15.375307 Z-0.125000
G01 X10.787468 Y14.765599 Z-0.125000
G01 X9.406991 Y15.202616 Z-0.125000
G01 X9.209817 Y16.102270 Z-0.125000
G01 X7.950792 Y16.509033 Z-0.125000
G01 X9.424216 Y9.804170 Z-0.125000
G01 X10.456164 Y10.746056 Z-0.125000
G01 X10.271407 Y11.590886 Z-0.125000
G01 X11.317782 Y12.543440 Z-0.125000
G01 X12.140227 Y12.281125 Z-0.125000
G01 X13.201030 Y13.249855 Z-0.125000
G00 Z5.000000

(End cutting path id: polygon2996-8)


(Start cutting path id: polygon2994-4)
(Change tool to Default tool)

G00 Z5.000000
G00 X15.497250 Y12.040494

G01 Z-0.125000 F100.0(Penetrate)
G01 X13.820356 Y12.574393 Z-0.125000 F400.000000
G01 X12.772145 Y11.616506 Z-0.125000
G01 X12.963985 Y10.731454 Z-0.125000
G01 X11.921019 Y9.780299 Z-0.125000
G01 X11.057478 Y10.055468 Z-0.125000
G01 X10.043630 Y9.128359 Z-0.125000
G01 X16.601509 Y7.044002 Z-0.125000
G01 X16.324329 Y8.305039 Z-0.125000
G01 X15.450295 Y8.582218 Z-0.125000
G01 X15.140938 Y9.999332 Z-0.125000
G01 X15.815001 Y10.615249 Z-0.125000
G01 X15.497250 Y12.040494 Z-0.125000
G00 Z5.000000

(End cutting path id: polygon2994-4)


(Start cutting path id: polygon2992-8)
(Change tool to Default tool)

G00 Z5.000000
G00 X20.757368 Y17.794028

G01 Z-0.125000 F100.0(Penetrate)
G01 X19.683188 Y16.818478 Z-0.125000 F400.000000
G01 X18.773566 Y17.109036 Z-0.125000
G01 X17.580382 Y16.026811 Z-0.125000
G01 X17.956192 Y14.319401 Z-0.125000
G01 X19.520465 Y13.811384 Z-0.125000
G01 X20.213939 Y14.445225 Z-0.125000
G01 X21.593979 Y14.005148 Z-0.125000
G01 X21.800508 Y13.074278 Z-0.125000
G01 X22.836741 Y12.737116 Z-0.125000
G01 X21.360344 Y19.456756 Z-0.125000
G01 X20.552500 Y18.721050 Z-0.125000
G01 X20.757368 Y17.794028 Z-0.125000
G00 Z5.000000

(End cutting path id: polygon2992-8)


(Start cutting path id: polygon2990-5)
(Change tool to Default tool)

G00 Z5.000000
G00 X13.075119 Y15.815385

G01 Z-0.125000 F100.0(Penetrate)
G01 X14.397275 Y17.020111 Z-0.125000 F400.000000
G01 X14.077862 Y18.464943 Z-0.125000
G01 X13.205839 Y18.742560 Z-0.125000
G01 X12.892285 Y20.159936 Z-0.125000
G01 X13.567047 Y20.774016 Z-0.125000
G01 X13.294239 Y22.012668 Z-0.125000
G01 X8.223250 Y17.384292 Z-0.125000
G01 X9.489358 Y16.976392 Z-0.125000
G01 X10.166568 Y17.597379 Z-0.125000
G01 X11.548532 Y17.155465 Z-0.125000
G01 X11.747717 Y16.244532 Z-0.125000
G01 X13.075119 Y15.815385 Z-0.125000
G00 Z5.000000

(End cutting path id: polygon2990-5)


(Start cutting path id: polygon2988-4)
(Change tool to Default tool)

G00 Z5.000000
G00 X15.292294 Y17.220082

G01 Z-0.125000 F100.0(Penetrate)
G01 X16.951875 Y16.692479 Z-0.125000 F400.000000
G01 X18.181521 Y17.811428 Z-0.125000
G01 X17.991605 Y18.673046 Z-0.125000
G01 X19.064299 Y19.650345 Z-0.125000
G01 X19.912014 Y19.381035 Z-0.125000
G01 X20.743903 Y20.133704 Z-0.125000
G01 X14.187947 Y22.220072 Z-0.125000
G01 X14.461804 Y20.978359 Z-0.125000
G01 X15.345019 Y20.696458 Z-0.125000
G01 X15.655688 Y19.279082 Z-0.125000
G01 X14.974455 Y18.657045 Z-0.125000
G01 X15.292294 Y17.220082 Z-0.125000
G00 Z5.000000

(End cutting path id: polygon2988-4)


(Start cutting path id: polygon2998)
(Change tool to Default tool)

G00 Z5.000000
G00 X26.554649 Y25.552103

G01 Z-0.125000 F100.0(Penetrate)
G01 X25.173035 Y25.992705 Z-0.125000 F400.000000
G01 X24.979796 Y26.872773 Z-0.125000
G01 X23.416485 Y27.377817 Z-0.125000
G01 X22.111030 Y26.187431 Z-0.125000
G01 X22.426420 Y24.759212 Z-0.125000
G01 X23.310597 Y24.478272 Z-0.125000
G01 X23.621703 Y23.060634 Z-0.125000
G01 X22.940121 Y22.438772 Z-0.125000
G01 X23.214940 Y21.193562 Z-0.125000
G01 X28.267305 Y25.807248 Z-0.125000
G01 X27.210961 Y26.150182 Z-0.125000
G01 X26.554649 Y25.552103 Z-0.125000
G00 Z5.000000

(End cutting path id: polygon2998)


(Start cutting path id: polygon2996)
(Change tool to Default tool)

G00 Z5.000000
G00 X15.990168 Y25.531293

G01 Z-0.125000 F100.0(Penetrate)
G01 X17.036543 Y26.483847 Z-0.125000 F400.000000
G01 X17.858988 Y26.221532 Z-0.125000
G01 X18.919791 Y27.190261 Z-0.125000
G01 X18.552112 Y28.870740 Z-0.125000
G01 X17.175045 Y29.315714 Z-0.125000
G01 X16.506229 Y28.706006 Z-0.125000
G01 X15.125752 Y29.143023 Z-0.125000
G01 X14.928578 Y30.042677 Z-0.125000
G01 X13.669553 Y30.449440 Z-0.125000
G01 X15.142977 Y23.744577 Z-0.125000
G01 X16.174925 Y24.686463 Z-0.125000
G01 X15.990168 Y25.531293 Z-0.125000
G00 Z5.000000

(End cutting path id: polygon2996)


(Start cutting path id: polygon2994)
(Change tool to Default tool)

G00 Z5.000000
G00 X21.169056 Y22.522625

G01 Z-0.125000 F100.0(Penetrate)
G01 X20.859699 Y23.939739 Z-0.125000 F400.000000
G01 X21.533762 Y24.555655 Z-0.125000
G01 X21.216010 Y25.980901 Z-0.125000
G01 X19.539117 Y26.514800 Z-0.125000
G01 X18.490906 Y25.556912 Z-0.125000
G01 X18.682745 Y24.671861 Z-0.125000
G01 X17.639780 Y23.720706 Z-0.125000
G01 X16.776239 Y23.995875 Z-0.125000
G01 X15.762391 Y23.068765 Z-0.125000
G01 X22.320270 Y20.984409 Z-0.125000
G01 X22.043090 Y22.245446 Z-0.125000
G01 X21.169056 Y22.522625 Z-0.125000
G00 Z5.000000

(End cutting path id: polygon2994)


(Start cutting path id: polygon2992)
(Change tool to Default tool)

G00 Z5.000000
G00 X28.555502 Y26.677523

G01 Z-0.125000 F100.0(Penetrate)
G01 X27.079104 Y33.397163 Z-0.125000 F400.000000
G01 X26.271261 Y32.661457 Z-0.125000
G01 X26.476129 Y31.734435 Z-0.125000
G01 X25.401949 Y30.758885 Z-0.125000
G01 X24.492327 Y31.049442 Z-0.125000
G01 X23.299143 Y29.967217 Z-0.125000
G01 X23.674953 Y28.259808 Z-0.125000
G01 X25.239226 Y27.751791 Z-0.125000
G01 X25.932700 Y28.385632 Z-0.125000
G01 X27.312740 Y27.945554 Z-0.125000
G01 X27.519269 Y27.014685 Z-0.125000
G01 X28.555502 Y26.677523 Z-0.125000
G00 Z5.000000

(End cutting path id: polygon2992)


(Start cutting path id: polygon2990)
(Change tool to Default tool)

G00 Z5.000000
G00 X15.885329 Y31.537786

G01 Z-0.125000 F100.0(Penetrate)
G01 X17.267293 Y31.095872 Z-0.125000 F400.000000
G01 X17.466477 Y30.184939 Z-0.125000
G01 X18.793880 Y29.755791 Z-0.125000
G01 X20.116036 Y30.960517 Z-0.125000
G01 X19.796623 Y32.405349 Z-0.125000
G01 X18.924600 Y32.682966 Z-0.125000
G01 X18.611046 Y34.100343 Z-0.125000
G01 X19.285808 Y34.714422 Z-0.125000
G01 X19.013000 Y35.953075 Z-0.125000
G01 X13.942011 Y31.324698 Z-0.125000
G01 X15.208119 Y30.916798 Z-0.125000
G01 X15.885329 Y31.537786 Z-0.125000
G00 Z5.000000

(End cutting path id: polygon2990)


(Start cutting path id: polygon2988)
(Change tool to Default tool)

G00 Z5.000000
G00 X21.063780 Y34.636865

G01 Z-0.125000 F100.0(Penetrate)
G01 X21.374449 Y33.219488 Z-0.125000 F400.000000
G01 X20.693216 Y32.597452 Z-0.125000
G01 X21.011055 Y31.160489 Z-0.125000
G01 X22.670636 Y30.632886 Z-0.125000
G01 X23.900282 Y31.751835 Z-0.125000
G01 X23.710365 Y32.613453 Z-0.125000
G01 X24.783060 Y33.590752 Z-0.125000
G01 X25.630775 Y33.321441 Z-0.125000
G01 X26.462664 Y34.074111 Z-0.125000
G01 X19.906708 Y36.160479 Z-0.125000
G01 X20.180565 Y34.918766 Z-0.125000
G01 X21.063780 Y34.636865 Z-0.125000
G00 Z5.000000

(End cutting path id: polygon2988)


(Footer)
M5
G00 X0.0000 Y0.0000
M2
(Using default footer. To add your own footer create file "footer" in the output dir.)
(end)
%