%
(Header)
(Generated by gcodetools from Inkscape.)
(Using default header. To add your own header create file "header" in the output dir.)
M3
(Header end.)
G21 (All units in mm)
 
G00 Z5.000000
G00 X20.487570 Y63.173681

G01 Z-0.125000 F100.0
G01 X20.434653 Y63.120764 Z-0.125000 F400.000000
G01 X18.926528 Y61.744931 Z-0.125000
G01 X18.864792 Y61.692014 Z-0.125000
G01 X18.882431 Y61.612639 Z-0.125000
G01 X19.244028 Y59.963403 Z-0.125000
G01 X19.261667 Y59.884028 Z-0.125000
G01 X19.341042 Y59.866389 Z-0.125000
G01 X20.284722 Y59.566528 Z-0.125000
G01 X20.611042 Y58.093681 Z-0.125000
G01 X19.879028 Y57.423403 Z-0.125000
G01 X19.826111 Y57.370486 Z-0.125000
G01 X19.843750 Y57.291111 Z-0.125000
G01 X20.152431 Y55.853542 Z-0.125000
G01 X20.205347 Y55.615417 Z-0.125000
G01 X20.390556 Y55.782986 Z-0.125000
G01 X26.211389 Y61.101111 Z-0.125000
G01 X26.387778 Y61.259861 Z-0.125000
G01 X26.158472 Y61.339236 Z-0.125000
G01 X24.941389 Y61.736111 Z-0.125000
G01 X24.862014 Y61.762570 Z-0.125000
G01 X24.800278 Y61.700834 Z-0.125000
G01 X24.112361 Y61.074653 Z-0.125000
G01 X22.674792 Y61.524445 Z-0.125000
G01 X22.463125 Y62.459306 Z-0.125000
G01 X22.445486 Y62.538681 Z-0.125000
G01 X22.374931 Y62.565139 Z-0.125000
G01 X20.566945 Y63.147223 Z-0.125000
G01 X20.487570 Y63.173681 Z-0.125000
G01 X20.487570 Y63.173681 Z-0.125000
G00 Z5.000000

G00 Z5.000000
G00 X20.558125 Y62.856181

G01 Z-0.125000 F100.0
G01 X22.207361 Y62.327014 Z-0.125000 F400.000000
G01 X22.410208 Y61.392153 Z-0.125000
G01 X22.427847 Y61.312778 Z-0.125000
G01 X22.507222 Y61.286320 Z-0.125000
G01 X24.103542 Y60.774792 Z-0.125000
G01 X24.174097 Y60.748334 Z-0.125000
G01 X24.235833 Y60.810070 Z-0.125000
G01 X24.932570 Y61.436250 Z-0.125000
G01 X25.840972 Y61.145209 Z-0.125000
G01 X20.381736 Y56.162223 Z-0.125000
G01 X20.134792 Y57.273473 Z-0.125000
G01 X20.857986 Y57.934931 Z-0.125000
G01 X20.919722 Y57.987848 Z-0.125000
G01 X20.902083 Y58.067223 Z-0.125000
G01 X20.540486 Y59.698820 Z-0.125000
G01 X20.522847 Y59.778195 Z-0.125000
G01 X20.443472 Y59.804653 Z-0.125000
G01 X19.508611 Y60.104514 Z-0.125000
G01 X19.173472 Y61.595000 Z-0.125000
G01 X20.558125 Y62.856181 Z-0.125000
G01 X20.558125 Y62.856181 Z-0.125000
G00 Z5.000000

G00 Z5.000000
G00 X16.095486 Y61.859584

G01 Z-0.125000 F100.0
G01 X17.868195 Y61.295139 Z-0.125000 F400.000000
G01 X18.203333 Y59.813473 Z-0.125000
G01 X17.488958 Y59.152014 Z-0.125000
G01 X17.427222 Y59.099098 Z-0.125000
G01 X17.444861 Y59.019723 Z-0.125000
G01 X17.797639 Y57.388125 Z-0.125000
G01 X17.815278 Y57.308750 Z-0.125000
G01 X17.894653 Y57.282292 Z-0.125000
G01 X18.820695 Y56.991250 Z-0.125000
G01 X19.076458 Y55.853542 Z-0.125000
G01 X11.976806 Y58.111320 Z-0.125000
G01 X12.911667 Y58.957986 Z-0.125000
G01 X13.828889 Y58.666945 Z-0.125000
G01 X13.899445 Y58.640486 Z-0.125000
G01 X13.961181 Y58.693403 Z-0.125000
G01 X15.169445 Y59.795834 Z-0.125000
G01 X15.222361 Y59.848750 Z-0.125000
G01 X15.204722 Y59.928125 Z-0.125000
G01 X15.001875 Y60.862986 Z-0.125000
G01 X16.095486 Y61.859584 Z-0.125000
G01 X16.095486 Y61.859584 Z-0.125000
G00 Z5.000000

G00 Z5.000000
G00 X16.024931 Y62.177084

G01 Z-0.125000 F100.0
G01 X15.963195 Y62.124167 Z-0.125000 F400.000000
G01 X14.754931 Y61.021736 Z-0.125000
G01 X14.693195 Y60.968820 Z-0.125000
G01 X14.710833 Y60.889445 Z-0.125000
G01 X14.913681 Y59.945764 Z-0.125000
G01 X13.828889 Y58.957986 Z-0.125000
G01 X12.920486 Y59.249028 Z-0.125000
G01 X12.841111 Y59.275486 Z-0.125000
G01 X12.779375 Y59.222570 Z-0.125000
G01 X11.606389 Y58.155417 Z-0.125000
G01 X11.430000 Y57.987848 Z-0.125000
G01 X11.659306 Y57.917292 Z-0.125000
G01 X19.217570 Y55.509584 Z-0.125000
G01 X19.455695 Y55.439028 Z-0.125000
G01 X19.402778 Y55.677153 Z-0.125000
G01 X19.085278 Y57.132361 Z-0.125000
G01 X19.067639 Y57.211736 Z-0.125000
G01 X18.988264 Y57.238195 Z-0.125000
G01 X18.053403 Y57.529236 Z-0.125000
G01 X17.735903 Y59.002084 Z-0.125000
G01 X18.450278 Y59.654723 Z-0.125000
G01 X18.512014 Y59.716459 Z-0.125000
G01 X18.494375 Y59.795834 Z-0.125000
G01 X18.123958 Y61.436250 Z-0.125000
G01 X18.106320 Y61.515625 Z-0.125000
G01 X18.035764 Y61.542084 Z-0.125000
G01 X16.104306 Y62.150625 Z-0.125000
G01 X16.024931 Y62.177084 Z-0.125000
G01 X16.024931 Y62.177084 Z-0.125000
G00 Z5.000000

G00 Z5.000000
G00 X9.480903 Y66.348681

G01 Z-0.125000 F100.0
G01 X10.627431 Y65.978264 Z-0.125000 F400.000000
G01 X10.830278 Y65.016945 Z-0.125000
G01 X10.847917 Y64.937570 Z-0.125000
G01 X10.927292 Y64.911111 Z-0.125000
G01 X12.523611 Y64.408403 Z-0.125000
G01 X12.594167 Y64.390764 Z-0.125000
G01 X12.655903 Y64.443681 Z-0.125000
G01 X13.370278 Y65.087500 Z-0.125000
G01 X14.799028 Y64.628889 Z-0.125000
G01 X15.187083 Y62.847361 Z-0.125000
G01 X14.084653 Y61.841945 Z-0.125000
G01 X13.220347 Y62.115348 Z-0.125000
G01 X13.140972 Y62.141806 Z-0.125000
G01 X13.079236 Y62.088889 Z-0.125000
G01 X11.870972 Y60.995278 Z-0.125000
G01 X11.809236 Y60.933542 Z-0.125000
G01 X11.826875 Y60.854167 Z-0.125000
G01 X12.020903 Y59.963403 Z-0.125000
G01 X11.077222 Y59.099098 Z-0.125000
G01 X9.480903 Y66.348681 Z-0.125000
G01 X9.480903 Y66.348681 Z-0.125000
G00 Z5.000000

G00 Z5.000000
G00 X9.101667 Y66.763195

G01 Z-0.125000 F100.0
G01 X9.154583 Y66.525070 Z-0.125000 F400.000000
G01 X10.856736 Y58.799236 Z-0.125000
G01 X10.909653 Y58.561111 Z-0.125000
G01 X11.086042 Y58.719861 Z-0.125000
G01 X12.276667 Y59.804653 Z-0.125000
G01 X12.338403 Y59.866389 Z-0.125000
G01 X12.320764 Y59.945764 Z-0.125000
G01 X12.126736 Y60.836528 Z-0.125000
G01 X13.211528 Y61.824306 Z-0.125000
G01 X14.075833 Y61.550903 Z-0.125000
G01 X14.155208 Y61.524445 Z-0.125000
G01 X14.216945 Y61.577361 Z-0.125000
G01 X15.442847 Y62.697431 Z-0.125000
G01 X15.495764 Y62.750348 Z-0.125000
G01 X15.478125 Y62.829723 Z-0.125000
G01 X15.054792 Y64.761181 Z-0.125000
G01 X15.037153 Y64.840556 Z-0.125000
G01 X14.966597 Y64.867014 Z-0.125000
G01 X13.379097 Y65.378542 Z-0.125000
G01 X13.299722 Y65.405000 Z-0.125000
G01 X13.237986 Y65.352084 Z-0.125000
G01 X12.532431 Y64.708264 Z-0.125000
G01 X11.094861 Y65.158056 Z-0.125000
G01 X10.883195 Y66.119375 Z-0.125000
G01 X10.865556 Y66.198750 Z-0.125000
G01 X10.786181 Y66.216389 Z-0.125000
G01 X9.339792 Y66.692639 Z-0.125000
G01 X9.101667 Y66.763195 Z-0.125000
G01 X9.101667 Y66.763195 Z-0.125000
G00 Z5.000000

G00 Z5.000000
G00 X15.363472 Y72.628125

G01 Z-0.125000 F100.0
G01 X15.610417 Y71.516875 Z-0.125000 F400.000000
G01 X14.896042 Y70.864237 Z-0.125000
G01 X14.834306 Y70.811320 Z-0.125000
G01 X14.851945 Y70.731945 Z-0.125000
G01 X15.213542 Y69.100348 Z-0.125000
G01 X15.231181 Y69.020973 Z-0.125000
G01 X15.310556 Y68.994514 Z-0.125000
G01 X16.236597 Y68.703473 Z-0.125000
G01 X16.562917 Y67.195348 Z-0.125000
G01 X15.160625 Y65.916528 Z-0.125000
G01 X13.793611 Y66.357500 Z-0.125000
G01 X13.573125 Y67.327639 Z-0.125000
G01 X13.555486 Y67.407014 Z-0.125000
G01 X13.484931 Y67.433473 Z-0.125000
G01 X11.888611 Y67.945000 Z-0.125000
G01 X11.809236 Y67.971459 Z-0.125000
G01 X11.747500 Y67.909723 Z-0.125000
G01 X11.033125 Y67.257084 Z-0.125000
G01 X9.877778 Y67.627500 Z-0.125000
G01 X15.363472 Y72.628125 Z-0.125000
G01 X15.363472 Y72.628125 Z-0.125000
G00 Z5.000000

G00 Z5.000000
G00 X15.539861 Y73.166112

G01 Z-0.125000 F100.0
G01 X15.354653 Y72.998542 Z-0.125000 F400.000000
G01 X9.516181 Y67.671598 Z-0.125000
G01 X9.330972 Y67.504028 Z-0.125000
G01 X9.560278 Y67.433473 Z-0.125000
G01 X11.024306 Y66.957223 Z-0.125000
G01 X11.103681 Y66.930764 Z-0.125000
G01 X11.165417 Y66.992500 Z-0.125000
G01 X11.879792 Y67.645139 Z-0.125000
G01 X13.317361 Y67.195348 Z-0.125000
G01 X13.529028 Y66.216389 Z-0.125000
G01 X13.546667 Y66.137014 Z-0.125000
G01 X13.626042 Y66.119375 Z-0.125000
G01 X15.151806 Y65.616667 Z-0.125000
G01 X15.231181 Y65.599028 Z-0.125000
G01 X15.292917 Y65.651945 Z-0.125000
G01 X16.818681 Y67.036598 Z-0.125000
G01 X16.880417 Y67.098334 Z-0.125000
G01 X16.862778 Y67.177709 Z-0.125000
G01 X16.492361 Y68.835764 Z-0.125000
G01 X16.474722 Y68.915139 Z-0.125000
G01 X16.395347 Y68.941598 Z-0.125000
G01 X15.469306 Y69.232639 Z-0.125000
G01 X15.142986 Y70.714306 Z-0.125000
G01 X15.857361 Y71.366945 Z-0.125000
G01 X15.919097 Y71.419862 Z-0.125000
G01 X15.901458 Y71.499237 Z-0.125000
G01 X15.592778 Y72.927987 Z-0.125000
G01 X15.539861 Y73.166112 Z-0.125000
G01 X15.539861 Y73.166112 Z-0.125000
G00 Z5.000000

G00 Z5.000000
G00 X16.289514 Y73.342500

G01 Z-0.125000 F100.0
G01 X16.342431 Y73.104375 Z-0.125000 F400.000000
G01 X16.659931 Y71.675625 Z-0.125000
G01 X16.677570 Y71.596250 Z-0.125000
G01 X16.756945 Y71.569792 Z-0.125000
G01 X17.691806 Y71.269931 Z-0.125000
G01 X18.018125 Y69.797084 Z-0.125000
G01 X17.294931 Y69.135625 Z-0.125000
G01 X17.233195 Y69.082709 Z-0.125000
G01 X17.250833 Y69.003334 Z-0.125000
G01 X17.612431 Y67.345278 Z-0.125000
G01 X17.630070 Y67.265903 Z-0.125000
G01 X17.709445 Y67.239445 Z-0.125000
G01 X19.623264 Y66.630903 Z-0.125000
G01 X19.702639 Y66.604445 Z-0.125000
G01 X19.764375 Y66.666181 Z-0.125000
G01 X21.175486 Y67.953820 Z-0.125000
G01 X21.237222 Y68.006737 Z-0.125000
G01 X21.219583 Y68.086112 Z-0.125000
G01 X21.016736 Y68.994514 Z-0.125000
G01 X22.136806 Y70.017570 Z-0.125000
G01 X23.036389 Y69.726528 Z-0.125000
G01 X23.115764 Y69.708889 Z-0.125000
G01 X23.168681 Y69.761806 Z-0.125000
G01 X24.130000 Y70.626112 Z-0.125000
G01 X24.315208 Y70.793681 Z-0.125000
G01 X24.077083 Y70.864237 Z-0.125000
G01 X16.527639 Y73.271945 Z-0.125000
G01 X16.289514 Y73.342500 Z-0.125000
G01 X16.289514 Y73.342500 Z-0.125000
G00 Z5.000000

G00 Z5.000000
G00 X16.668750 Y72.927987

G01 Z-0.125000 F100.0
G01 X23.759583 Y70.670209 Z-0.125000 F400.000000
G01 X23.045208 Y70.026389 Z-0.125000
G01 X22.145625 Y70.308612 Z-0.125000
G01 X22.066250 Y70.335070 Z-0.125000
G01 X22.004514 Y70.282153 Z-0.125000
G01 X20.769792 Y69.153264 Z-0.125000
G01 X20.708056 Y69.100348 Z-0.125000
G01 X20.725695 Y69.020973 Z-0.125000
G01 X20.928542 Y68.103750 Z-0.125000
G01 X19.632083 Y66.930764 Z-0.125000
G01 X17.877014 Y67.486389 Z-0.125000
G01 X17.541875 Y68.985695 Z-0.125000
G01 X18.265070 Y69.647153 Z-0.125000
G01 X18.326806 Y69.700070 Z-0.125000
G01 X18.309167 Y69.779445 Z-0.125000
G01 X17.956389 Y71.411042 Z-0.125000
G01 X17.938750 Y71.490417 Z-0.125000
G01 X17.859375 Y71.516875 Z-0.125000
G01 X16.915695 Y71.816737 Z-0.125000
G01 X16.668750 Y72.927987 Z-0.125000
G01 X16.668750 Y72.927987 Z-0.125000
G00 Z5.000000

G00 Z5.000000
G00 X24.835556 Y70.220417

G01 Z-0.125000 F100.0
G01 X24.650347 Y70.052848 Z-0.125000 F400.000000
G01 X23.724306 Y69.206181 Z-0.125000
G01 X23.662570 Y69.153264 Z-0.125000
G01 X23.680208 Y69.073889 Z-0.125000
G01 X23.900695 Y68.086112 Z-0.125000
G01 X22.780625 Y67.071875 Z-0.125000
G01 X21.810486 Y67.380556 Z-0.125000
G01 X21.731111 Y67.407014 Z-0.125000
G01 X21.669375 Y67.354098 Z-0.125000
G01 X20.293542 Y66.101736 Z-0.125000
G01 X20.231806 Y66.048820 Z-0.125000
G01 X20.249445 Y65.969445 Z-0.125000
G01 X20.690417 Y64.002709 Z-0.125000
G01 X20.708056 Y63.923334 Z-0.125000
G01 X20.778611 Y63.896875 Z-0.125000
G01 X22.586597 Y63.314792 Z-0.125000
G01 X22.665972 Y63.288334 Z-0.125000
G01 X22.718889 Y63.341250 Z-0.125000
G01 X23.459722 Y64.011528 Z-0.125000
G01 X24.897292 Y63.561736 Z-0.125000
G01 X25.117778 Y62.565139 Z-0.125000
G01 X25.135417 Y62.485764 Z-0.125000
G01 X25.214792 Y62.459306 Z-0.125000
G01 X26.405417 Y62.071250 Z-0.125000
G01 X26.643542 Y62.000695 Z-0.125000
G01 X26.590625 Y62.238820 Z-0.125000
G01 X24.888472 Y69.982292 Z-0.125000
G01 X24.835556 Y70.220417 Z-0.125000
G01 X24.835556 Y70.220417 Z-0.125000
G00 Z5.000000

G00 Z5.000000
G00 X24.659167 Y69.682431

G01 Z-0.125000 F100.0
G01 X26.255486 Y62.424028 Z-0.125000 F400.000000
G01 X25.373542 Y62.706250 Z-0.125000
G01 X25.153056 Y63.702848 Z-0.125000
G01 X25.135417 Y63.782223 Z-0.125000
G01 X25.056042 Y63.799861 Z-0.125000
G01 X23.468542 Y64.311389 Z-0.125000
G01 X23.389167 Y64.337848 Z-0.125000
G01 X23.327431 Y64.276111 Z-0.125000
G01 X22.595417 Y63.605834 Z-0.125000
G01 X20.946181 Y64.135000 Z-0.125000
G01 X20.549306 Y65.942986 Z-0.125000
G01 X21.801667 Y67.089514 Z-0.125000
G01 X22.771806 Y66.780834 Z-0.125000
G01 X22.851181 Y66.754375 Z-0.125000
G01 X22.912917 Y66.807292 Z-0.125000
G01 X24.147639 Y67.927362 Z-0.125000
G01 X24.209375 Y67.989098 Z-0.125000
G01 X24.191736 Y68.068473 Z-0.125000
G01 X23.971250 Y69.056250 Z-0.125000
G01 X24.659167 Y69.682431 Z-0.125000
G01 X24.659167 Y69.682431 Z-0.125000
G00 Z5.000000

G00 Z5.000000
G00 X26.617083 Y57.652709

G01 Z-0.125000 F100.0
G01 X26.572986 Y57.617431 Z-0.125000 F400.000000
G01 X24.032986 Y55.306736 Z-0.125000
G01 X23.988889 Y55.262639 Z-0.125000
G01 X23.988889 Y55.200903 Z-0.125000
G01 X23.988889 Y46.822431 Z-0.125000
G01 X23.988889 Y46.760695 Z-0.125000
G01 X24.032986 Y46.725417 Z-0.125000
G01 X26.572986 Y44.414722 Z-0.125000
G01 X26.617083 Y44.379445 Z-0.125000
G01 X26.670000 Y44.379445 Z-0.125000
G01 X32.102778 Y44.379445 Z-0.125000
G01 X32.155695 Y44.379445 Z-0.125000
G01 X32.199792 Y44.414722 Z-0.125000
G01 X34.739792 Y46.725417 Z-0.125000
G01 X34.783889 Y46.760695 Z-0.125000
G01 X34.783889 Y46.822431 Z-0.125000
G01 X34.783889 Y55.200903 Z-0.125000
G01 X34.783889 Y55.262639 Z-0.125000
G01 X34.739792 Y55.306736 Z-0.125000
G01 X32.199792 Y57.617431 Z-0.125000
G01 X32.155695 Y57.652709 Z-0.125000
G01 X32.102778 Y57.652709 Z-0.125000
G01 X26.670000 Y57.652709 Z-0.125000
G01 X26.617083 Y57.652709 Z-0.125000
G01 X26.617083 Y57.652709 Z-0.125000
G00 Z5.000000

G00 Z5.000000
G00 X26.731736 Y57.370486

G01 Z-0.125000 F100.0
G01 X32.041042 Y57.370486 Z-0.125000 F400.000000
G01 X34.501667 Y55.139167 Z-0.125000
G01 X34.501667 Y46.884167 Z-0.125000
G01 X32.041042 Y44.661667 Z-0.125000
G01 X26.731736 Y44.661667 Z-0.125000
G01 X24.271111 Y46.884167 Z-0.125000
G01 X24.271111 Y55.139167 Z-0.125000
G01 X26.731736 Y57.370486 Z-0.125000
G01 X26.731736 Y57.370486 Z-0.125000
G00 Z5.000000

G00 Z5.000000
G00 X27.745972 Y54.998056

G01 Z-0.125000 F100.0
G01 X27.710695 Y54.962778 Z-0.125000 F400.000000
G01 X26.864028 Y54.195486 Z-0.125000
G01 X26.819931 Y54.151389 Z-0.125000
G01 X26.819931 Y54.089653 Z-0.125000
G01 X26.819931 Y47.942500 Z-0.125000
G01 X26.819931 Y47.880764 Z-0.125000
G01 X26.864028 Y47.836667 Z-0.125000
G01 X27.710695 Y47.069375 Z-0.125000
G01 X27.745972 Y47.034097 Z-0.125000
G01 X27.807708 Y47.034097 Z-0.125000
G01 X30.965070 Y47.034097 Z-0.125000
G01 X31.026806 Y47.034097 Z-0.125000
G01 X31.062084 Y47.069375 Z-0.125000
G01 X31.908750 Y47.836667 Z-0.125000
G01 X31.952847 Y47.880764 Z-0.125000
G01 X31.952847 Y47.942500 Z-0.125000
G01 X31.952847 Y54.089653 Z-0.125000
G01 X31.952847 Y54.151389 Z-0.125000
G01 X31.908750 Y54.195486 Z-0.125000
G01 X31.062084 Y54.962778 Z-0.125000
G01 X31.026806 Y54.998056 Z-0.125000
G01 X30.965070 Y54.998056 Z-0.125000
G01 X27.807708 Y54.998056 Z-0.125000
G01 X27.745972 Y54.998056 Z-0.125000
G01 X27.745972 Y54.998056 Z-0.125000
G00 Z5.000000

G00 Z5.000000
G00 X27.860625 Y54.715834

G01 Z-0.125000 F100.0
G01 X30.912153 Y54.715834 Z-0.125000 F400.000000
G01 X31.670625 Y54.027917 Z-0.125000
G01 X31.670625 Y48.004236 Z-0.125000
G01 X30.912153 Y47.316320 Z-0.125000
G01 X27.860625 Y47.316320 Z-0.125000
G01 X27.102153 Y48.004236 Z-0.125000
G01 X27.102153 Y54.027917 Z-0.125000
G01 X27.860625 Y54.715834 Z-0.125000
G01 X27.860625 Y54.715834 Z-0.125000
G00 Z5.000000

G00 Z5.000000
G00 X36.150903 Y57.652709

G01 Z-0.125000 F100.0
G01 X36.150903 Y57.511598 Z-0.125000 F400.000000
G01 X36.150903 Y44.520556 Z-0.125000
G01 X36.150903 Y44.379445 Z-0.125000
G01 X36.292014 Y44.379445 Z-0.125000
G01 X39.131875 Y44.379445 Z-0.125000
G01 X39.272986 Y44.379445 Z-0.125000
G01 X39.272986 Y44.520556 Z-0.125000
G01 X39.272986 Y48.533403 Z-0.125000
G01 X43.920834 Y48.533403 Z-0.125000
G01 X43.982570 Y48.533403 Z-0.125000
G01 X44.017847 Y48.577500 Z-0.125000
G01 X46.363820 Y50.897014 Z-0.125000
G01 X46.407917 Y50.941111 Z-0.125000
G01 X46.407917 Y50.994028 Z-0.125000
G01 X46.407917 Y55.183264 Z-0.125000
G01 X46.407917 Y55.245000 Z-0.125000
G01 X46.363820 Y55.289098 Z-0.125000
G01 X44.017847 Y57.608611 Z-0.125000
G01 X43.982570 Y57.652709 Z-0.125000
G01 X43.920834 Y57.652709 Z-0.125000
G01 X36.292014 Y57.652709 Z-0.125000
G01 X36.150903 Y57.652709 Z-0.125000
G01 X36.150903 Y57.652709 Z-0.125000
G00 Z5.000000

G00 Z5.000000
G00 X36.433125 Y57.370486

G01 Z-0.125000 F100.0
G01 X43.859097 Y57.370486 Z-0.125000 F400.000000
G01 X46.125695 Y55.121528 Z-0.125000
G01 X46.125695 Y51.064584 Z-0.125000
G01 X43.867917 Y48.815625 Z-0.125000
G01 X39.131875 Y48.815625 Z-0.125000
G01 X38.990764 Y48.815625 Z-0.125000
G01 X38.990764 Y48.674514 Z-0.125000
G01 X38.990764 Y44.661667 Z-0.125000
G01 X36.433125 Y44.661667 Z-0.125000
G01 X36.433125 Y57.370486 Z-0.125000
G01 X36.433125 Y57.370486 Z-0.125000
G00 Z5.000000

G00 Z5.000000
G00 X38.990764 Y54.998056

G01 Z-0.125000 F100.0
G01 X38.990764 Y54.856945 Z-0.125000 F400.000000
G01 X38.990764 Y51.329167 Z-0.125000
G01 X38.990764 Y51.188056 Z-0.125000
G01 X39.131875 Y51.188056 Z-0.125000
G01 X42.694931 Y51.188056 Z-0.125000
G01 X42.756667 Y51.188056 Z-0.125000
G01 X42.791945 Y51.223334 Z-0.125000
G01 X43.523959 Y51.955348 Z-0.125000
G01 X43.568056 Y51.999445 Z-0.125000
G01 X43.568056 Y52.061181 Z-0.125000
G01 X43.568056 Y54.124931 Z-0.125000
G01 X43.568056 Y54.186667 Z-0.125000
G01 X43.523959 Y54.221945 Z-0.125000
G01 X42.791945 Y54.953959 Z-0.125000
G01 X42.756667 Y54.998056 Z-0.125000
G01 X42.694931 Y54.998056 Z-0.125000
G01 X39.131875 Y54.998056 Z-0.125000
G01 X38.990764 Y54.998056 Z-0.125000
G01 X38.990764 Y54.998056 Z-0.125000
G00 Z5.000000

G00 Z5.000000
G00 X39.272986 Y54.715834

G01 Z-0.125000 F100.0
G01 X42.642014 Y54.715834 Z-0.125000 F400.000000
G01 X43.285834 Y54.072014 Z-0.125000
G01 X43.285834 Y52.114098 Z-0.125000
G01 X42.642014 Y51.470278 Z-0.125000
G01 X39.272986 Y51.470278 Z-0.125000
G01 X39.272986 Y54.715834 Z-0.125000
G01 X39.272986 Y54.715834 Z-0.125000
G00 Z5.000000

G00 Z5.000000
G00 X47.766111 Y57.652709

G01 Z-0.125000 F100.0
G01 X47.766111 Y57.511598 Z-0.125000 F400.000000
G01 X47.766111 Y44.520556 Z-0.125000
G01 X47.766111 Y44.379445 Z-0.125000
G01 X47.907223 Y44.379445 Z-0.125000
G01 X56.929514 Y44.379445 Z-0.125000
G01 X57.070625 Y44.379445 Z-0.125000
G01 X57.070625 Y44.520556 Z-0.125000
G01 X57.070625 Y47.175209 Z-0.125000
G01 X57.070625 Y47.316320 Z-0.125000
G01 X56.929514 Y47.316320 Z-0.125000
G01 X50.888195 Y47.316320 Z-0.125000
G01 X50.888195 Y49.829861 Z-0.125000
G01 X56.162223 Y49.829861 Z-0.125000
G01 X56.303334 Y49.829861 Z-0.125000
G01 X56.303334 Y49.970973 Z-0.125000
G01 X56.303334 Y52.625625 Z-0.125000
G01 X56.303334 Y52.766736 Z-0.125000
G01 X56.162223 Y52.766736 Z-0.125000
G01 X50.888195 Y52.766736 Z-0.125000
G01 X50.888195 Y54.715834 Z-0.125000
G01 X56.929514 Y54.715834 Z-0.125000
G01 X57.070625 Y54.715834 Z-0.125000
G01 X57.070625 Y54.856945 Z-0.125000
G01 X57.070625 Y57.511598 Z-0.125000
G01 X57.070625 Y57.652709 Z-0.125000
G01 X56.929514 Y57.652709 Z-0.125000
G01 X47.907223 Y57.652709 Z-0.125000
G01 X47.766111 Y57.652709 Z-0.125000
G01 X47.766111 Y57.652709 Z-0.125000
G00 Z5.000000

G00 Z5.000000
G00 X48.048334 Y57.370486

G01 Z-0.125000 F100.0
G01 X56.788403 Y57.370486 Z-0.125000 F400.000000
G01 X56.788403 Y54.998056 Z-0.125000
G01 X50.747084 Y54.998056 Z-0.125000
G01 X50.605973 Y54.998056 Z-0.125000
G01 X50.605973 Y54.856945 Z-0.125000
G01 X50.605973 Y52.625625 Z-0.125000
G01 X50.605973 Y52.484514 Z-0.125000
G01 X50.747084 Y52.484514 Z-0.125000
G01 X56.021111 Y52.484514 Z-0.125000
G01 X56.021111 Y50.112084 Z-0.125000
G01 X50.747084 Y50.112084 Z-0.125000
G01 X50.605973 Y50.112084 Z-0.125000
G01 X50.605973 Y49.970973 Z-0.125000
G01 X50.605973 Y47.175209 Z-0.125000
G01 X50.605973 Y47.034097 Z-0.125000
G01 X50.747084 Y47.034097 Z-0.125000
G01 X56.788403 Y47.034097 Z-0.125000
G01 X56.788403 Y44.661667 Z-0.125000
G01 X48.048334 Y44.661667 Z-0.125000
G01 X48.048334 Y57.370486 Z-0.125000
G01 X48.048334 Y57.370486 Z-0.125000
G00 Z5.000000

G00 Z5.000000
G00 X58.252431 Y57.652709

G01 Z-0.125000 F100.0
G01 X58.252431 Y57.511598 Z-0.125000 F400.000000
G01 X58.252431 Y44.520556 Z-0.125000
G01 X58.252431 Y44.379445 Z-0.125000
G01 X58.393542 Y44.379445 Z-0.125000
G01 X61.233403 Y44.379445 Z-0.125000
G01 X61.374514 Y44.379445 Z-0.125000
G01 X61.374514 Y44.520556 Z-0.125000
G01 X61.374514 Y51.329167 Z-0.125000
G01 X61.374514 Y51.337972 Z-0.125000
G01 X61.365709 Y51.346778 Z-0.125000
G01 X61.330431 Y51.593722 Z-0.125000
G01 X61.445084 Y51.293861 Z-0.125000
G01 X61.453889 Y51.276222 Z-0.125000
G01 X61.453889 Y51.267417 Z-0.125000
G01 X65.722500 Y44.449986 Z-0.125000
G01 X65.757778 Y44.379431 Z-0.125000
G01 X65.837153 Y44.379431 Z-0.125000
G01 X68.385973 Y44.379431 Z-0.125000
G01 X68.527084 Y44.379431 Z-0.125000
G01 X68.527084 Y44.520542 Z-0.125000
G01 X68.527084 Y57.511583 Z-0.125000
G01 X68.527084 Y57.652695 Z-0.125000
G01 X68.385973 Y57.652695 Z-0.125000
G01 X65.546111 Y57.652695 Z-0.125000
G01 X65.405000 Y57.652695 Z-0.125000
G01 X65.405000 Y57.511583 Z-0.125000
G01 X65.405000 Y50.702972 Z-0.125000
G01 X65.405000 Y50.694167 Z-0.125000
G01 X65.405000 Y50.685362 Z-0.125000
G01 X65.440278 Y50.456056 Z-0.125000
G01 X65.334445 Y50.738278 Z-0.125000
G01 X65.325639 Y50.747084 Z-0.125000
G01 X65.316834 Y50.764723 Z-0.125000
G01 X61.057042 Y57.582153 Z-0.125000
G01 X61.012945 Y57.652709 Z-0.125000
G01 X60.933570 Y57.652709 Z-0.125000
G01 X58.393570 Y57.652709 Z-0.125000
G01 X58.252459 Y57.652709 Z-0.125000
G01 X58.252431 Y57.652709 Z-0.125000
G00 Z5.000000

G00 Z5.000000
G00 X58.534653 Y57.370486

G01 Z-0.125000 F100.0
G01 X60.854167 Y57.370486 Z-0.125000 F400.000000
G01 X65.069861 Y50.632431 Z-0.125000
G01 X65.078667 Y50.614792 Z-0.125000
G01 X65.546097 Y49.424167 Z-0.125000
G01 X65.581375 Y49.335973 Z-0.125000
G01 X65.678389 Y49.335973 Z-0.125000
G01 X65.748945 Y49.335973 Z-0.125000
G01 X65.916514 Y49.335973 Z-0.125000
G01 X65.890070 Y49.503542 Z-0.125000
G01 X65.687223 Y50.702986 Z-0.125000
G01 X65.687223 Y50.729431 Z-0.125000
G01 X65.687223 Y57.370472 Z-0.125000
G01 X68.244862 Y57.370472 Z-0.125000
G01 X68.244862 Y44.661653 Z-0.125000
G01 X65.925348 Y44.661653 Z-0.125000
G01 X61.709653 Y51.399708 Z-0.125000
G01 X61.709653 Y51.408514 Z-0.125000
G01 X61.700848 Y51.417319 Z-0.125000
G01 X61.233417 Y52.599125 Z-0.125000
G01 X61.198139 Y52.696139 Z-0.125000
G01 X61.101126 Y52.696139 Z-0.125000
G01 X61.030570 Y52.696139 Z-0.125000
G01 X60.863001 Y52.696139 Z-0.125000
G01 X60.889445 Y52.528569 Z-0.125000
G01 X61.092292 Y51.329125 Z-0.125000
G01 X61.092292 Y51.302680 Z-0.125000
G01 X61.092292 Y44.661639 Z-0.125000
G01 X58.534653 Y44.661639 Z-0.125000
G01 X58.534653 Y57.370458 Z-0.125000
G01 X58.534653 Y57.370486 Z-0.125000
G00 Z5.000000

G00 Z5.000000
G00 X58.719861 Y40.322500

G01 Z-0.125000 F100.0
G01 X58.675764 Y40.278403 Z-0.125000 F400.000000
G01 X56.338611 Y37.941250 Z-0.125000
G01 X56.294514 Y37.897153 Z-0.125000
G01 X56.294514 Y37.844236 Z-0.125000
G01 X56.294514 Y29.536320 Z-0.125000
G01 X56.294514 Y29.474584 Z-0.125000
G01 X56.338611 Y29.439306 Z-0.125000
G01 X58.675764 Y27.093333 Z-0.125000
G01 X58.719861 Y27.049236 Z-0.125000
G01 X58.781598 Y27.049236 Z-0.125000
G01 X64.196736 Y27.049236 Z-0.125000
G01 X64.249653 Y27.049236 Z-0.125000
G01 X64.293750 Y27.093333 Z-0.125000
G01 X66.763195 Y29.562778 Z-0.125000
G01 X66.860209 Y29.659792 Z-0.125000
G01 X66.763195 Y29.765625 Z-0.125000
G01 X64.822917 Y31.705903 Z-0.125000
G01 X64.725903 Y31.802917 Z-0.125000
G01 X64.620070 Y31.705903 Z-0.125000
G01 X62.909098 Y29.986111 Z-0.125000
G01 X60.060417 Y29.986111 Z-0.125000
G01 X59.416598 Y30.629931 Z-0.125000
G01 X59.416598 Y36.741806 Z-0.125000
G01 X60.060417 Y37.385625 Z-0.125000
G01 X62.785625 Y37.385625 Z-0.125000
G01 X63.429445 Y36.741806 Z-0.125000
G01 X63.429445 Y35.427709 Z-0.125000
G01 X63.429445 Y35.286597 Z-0.125000
G01 X63.570556 Y35.286597 Z-0.125000
G01 X66.401598 Y35.286597 Z-0.125000
G01 X66.542709 Y35.286597 Z-0.125000
G01 X66.542709 Y35.427709 Z-0.125000
G01 X66.542709 Y37.844236 Z-0.125000
G01 X66.542709 Y37.897153 Z-0.125000
G01 X66.507431 Y37.941250 Z-0.125000
G01 X64.161459 Y40.278403 Z-0.125000
G01 X64.126181 Y40.322500 Z-0.125000
G01 X64.064445 Y40.322500 Z-0.125000
G01 X58.781598 Y40.322500 Z-0.125000
G01 X58.719861 Y40.322500 Z-0.125000
G01 X58.719861 Y40.322500 Z-0.125000
G00 Z5.000000

G00 Z5.000000
G00 X58.834514 Y40.040278

G01 Z-0.125000 F100.0
G01 X64.011528 Y40.040278 Z-0.125000 F400.000000
G01 X66.260486 Y37.782500 Z-0.125000
G01 X66.260486 Y35.568820 Z-0.125000
G01 X63.711667 Y35.568820 Z-0.125000
G01 X63.711667 Y36.794722 Z-0.125000
G01 X63.711667 Y36.856459 Z-0.125000
G01 X63.667570 Y36.900556 Z-0.125000
G01 X62.935556 Y37.632570 Z-0.125000
G01 X62.900278 Y37.667847 Z-0.125000
G01 X62.838542 Y37.667847 Z-0.125000
G01 X60.007500 Y37.667847 Z-0.125000
G01 X59.945764 Y37.667847 Z-0.125000
G01 X59.901667 Y37.632570 Z-0.125000
G01 X59.169653 Y36.900556 Z-0.125000
G01 X59.134375 Y36.856459 Z-0.125000
G01 X59.134375 Y36.794722 Z-0.125000
G01 X59.134375 Y30.577014 Z-0.125000
G01 X59.134375 Y30.515278 Z-0.125000
G01 X59.169653 Y30.480000 Z-0.125000
G01 X59.901667 Y29.747986 Z-0.125000
G01 X59.945764 Y29.703889 Z-0.125000
G01 X60.007500 Y29.703889 Z-0.125000
G01 X62.970834 Y29.703889 Z-0.125000
G01 X63.023750 Y29.703889 Z-0.125000
G01 X63.067848 Y29.747986 Z-0.125000
G01 X64.717084 Y31.397222 Z-0.125000
G01 X66.463334 Y29.668611 Z-0.125000
G01 X64.126181 Y27.331458 Z-0.125000
G01 X58.843334 Y27.331458 Z-0.125000
G01 X56.576736 Y29.589236 Z-0.125000
G01 X56.576736 Y37.782500 Z-0.125000
G01 X58.834514 Y40.040278 Z-0.125000
G01 X58.834514 Y40.040278 Z-0.125000
G00 Z5.000000

G00 Z5.000000
G00 X67.803889 Y40.322500

G01 Z-0.125000 F100.0
G01 X67.803889 Y40.181389 Z-0.125000 F400.000000
G01 X67.803889 Y27.190347 Z-0.125000
G01 X67.803889 Y27.049236 Z-0.125000
G01 X67.945000 Y27.049236 Z-0.125000
G01 X76.958473 Y27.049236 Z-0.125000
G01 X77.099584 Y27.049236 Z-0.125000
G01 X77.099584 Y27.190347 Z-0.125000
G01 X77.099584 Y29.845000 Z-0.125000
G01 X77.099584 Y29.986111 Z-0.125000
G01 X76.958473 Y29.986111 Z-0.125000
G01 X70.917153 Y29.986111 Z-0.125000
G01 X70.917153 Y32.508472 Z-0.125000
G01 X76.191181 Y32.508472 Z-0.125000
G01 X76.332292 Y32.508472 Z-0.125000
G01 X76.332292 Y32.649584 Z-0.125000
G01 X76.332292 Y35.295417 Z-0.125000
G01 X76.332292 Y35.436528 Z-0.125000
G01 X76.191181 Y35.436528 Z-0.125000
G01 X70.917153 Y35.436528 Z-0.125000
G01 X70.917153 Y37.385625 Z-0.125000
G01 X76.958473 Y37.385625 Z-0.125000
G01 X77.099584 Y37.385625 Z-0.125000
G01 X77.099584 Y37.526736 Z-0.125000
G01 X77.099584 Y40.181389 Z-0.125000
G01 X77.099584 Y40.322500 Z-0.125000
G01 X76.958473 Y40.322500 Z-0.125000
G01 X67.945000 Y40.322500 Z-0.125000
G01 X67.803889 Y40.322500 Z-0.125000
G01 X67.803889 Y40.322500 Z-0.125000
G00 Z5.000000

G00 Z5.000000
G00 X68.086112 Y40.040278

G01 Z-0.125000 F100.0
G01 X76.817362 Y40.040278 Z-0.125000 F400.000000
G01 X76.817362 Y37.667847 Z-0.125000
G01 X70.776042 Y37.667847 Z-0.125000
G01 X70.634931 Y37.667847 Z-0.125000
G01 X70.634931 Y37.526736 Z-0.125000
G01 X70.634931 Y35.295417 Z-0.125000
G01 X70.634931 Y35.154306 Z-0.125000
G01 X70.776042 Y35.154306 Z-0.125000
G01 X76.050070 Y35.154306 Z-0.125000
G01 X76.050070 Y32.790695 Z-0.125000
G01 X70.776042 Y32.790695 Z-0.125000
G01 X70.634931 Y32.790695 Z-0.125000
G01 X70.634931 Y32.649584 Z-0.125000
G01 X70.634931 Y29.845000 Z-0.125000
G01 X70.634931 Y29.703889 Z-0.125000
G01 X70.776042 Y29.703889 Z-0.125000
G01 X76.817362 Y29.703889 Z-0.125000
G01 X76.817362 Y27.331458 Z-0.125000
G01 X68.086112 Y27.331458 Z-0.125000
G01 X68.086112 Y40.040278 Z-0.125000
G01 X68.086112 Y40.040278 Z-0.125000
G00 Z5.000000

G00 Z5.000000
G00 X71.296389 Y22.427847

G01 Z-0.125000 F100.0
G01 X71.296389 Y22.286736 Z-0.125000 F400.000000
G01 X71.296389 Y11.624028 Z-0.125000
G01 X71.296389 Y11.562292 Z-0.125000
G01 X71.340487 Y11.527014 Z-0.125000
G01 X73.677639 Y9.198681 Z-0.125000
G01 X73.721737 Y9.163403 Z-0.125000
G01 X73.783473 Y9.163403 Z-0.125000
G01 X79.066320 Y9.163403 Z-0.125000
G01 X79.128056 Y9.163403 Z-0.125000
G01 X79.163334 Y9.198681 Z-0.125000
G01 X81.509306 Y11.527014 Z-0.125000
G01 X81.544584 Y11.562292 Z-0.125000
G01 X81.544584 Y11.624028 Z-0.125000
G01 X81.544584 Y22.286736 Z-0.125000
G01 X81.544584 Y22.427847 Z-0.125000
G01 X81.403473 Y22.427847 Z-0.125000
G01 X78.572431 Y22.427847 Z-0.125000
G01 X78.431320 Y22.427847 Z-0.125000
G01 X78.431320 Y22.286736 Z-0.125000
G01 X78.431320 Y12.744097 Z-0.125000
G01 X77.778681 Y12.091458 Z-0.125000
G01 X75.071112 Y12.091458 Z-0.125000
G01 X74.418473 Y12.744097 Z-0.125000
G01 X74.418473 Y22.286736 Z-0.125000
G01 X74.418473 Y22.427847 Z-0.125000
G01 X74.277362 Y22.427847 Z-0.125000
G01 X71.437500 Y22.427847 Z-0.125000
G01 X71.296389 Y22.427847 Z-0.125000
G01 X71.296389 Y22.427847 Z-0.125000
G00 Z5.000000

G00 Z5.000000
G00 X71.578612 Y22.145625

G01 Z-0.125000 F100.0
G01 X74.136250 Y22.145625 Z-0.125000 F400.000000
G01 X74.136250 Y12.682361 Z-0.125000
G01 X74.136250 Y12.629445 Z-0.125000
G01 X74.171528 Y12.585347 Z-0.125000
G01 X74.903542 Y11.853333 Z-0.125000
G01 X74.947639 Y11.809236 Z-0.125000
G01 X75.000556 Y11.809236 Z-0.125000
G01 X77.840417 Y11.809236 Z-0.125000
G01 X77.902153 Y11.809236 Z-0.125000
G01 X77.937431 Y11.853333 Z-0.125000
G01 X78.669445 Y12.585347 Z-0.125000
G01 X78.713542 Y12.629445 Z-0.125000
G01 X78.713542 Y12.682361 Z-0.125000
G01 X78.713542 Y22.145625 Z-0.125000
G01 X81.262362 Y22.145625 Z-0.125000
G01 X81.262362 Y11.676945 Z-0.125000
G01 X79.013403 Y9.445625 Z-0.125000
G01 X73.836389 Y9.445625 Z-0.125000
G01 X71.578612 Y11.676945 Z-0.125000
G01 X71.578612 Y22.145625 Z-0.125000
G01 X71.578612 Y22.145625 Z-0.125000
G00 Z5.000000

G00 Z5.000000
G00 X59.592986 Y22.145625

G01 Z-0.125000 F100.0
G01 X62.150625 Y22.145625 Z-0.125000 F400.000000
G01 X62.150625 Y17.206736 Z-0.125000
G01 X62.150625 Y17.065625 Z-0.125000
G01 X62.291736 Y17.065625 Z-0.125000
G01 X66.586806 Y17.065625 Z-0.125000
G01 X66.727917 Y17.065625 Z-0.125000
G01 X66.727917 Y17.206736 Z-0.125000
G01 X66.727917 Y22.145625 Z-0.125000
G01 X69.285556 Y22.145625 Z-0.125000
G01 X69.285556 Y9.445625 Z-0.125000
G01 X66.727917 Y9.445625 Z-0.125000
G01 X66.727917 Y14.552083 Z-0.125000
G01 X66.727917 Y14.693195 Z-0.125000
G01 X66.586806 Y14.693195 Z-0.125000
G01 X62.291736 Y14.693195 Z-0.125000
G01 X62.150625 Y14.693195 Z-0.125000
G01 X62.150625 Y14.552083 Z-0.125000
G01 X62.150625 Y9.445625 Z-0.125000
G01 X59.592986 Y9.445625 Z-0.125000
G01 X59.592986 Y22.145625 Z-0.125000
G01 X59.592986 Y22.145625 Z-0.125000
G00 Z5.000000

G00 Z5.000000
G00 X59.310764 Y22.427847

G01 Z-0.125000 F100.0
G01 X59.310764 Y22.286736 Z-0.125000 F400.000000
G01 X59.310764 Y9.304514 Z-0.125000
G01 X59.310764 Y9.163403 Z-0.125000
G01 X59.451875 Y9.163403 Z-0.125000
G01 X62.291736 Y9.163403 Z-0.125000
G01 X62.432848 Y9.163403 Z-0.125000
G01 X62.432848 Y9.304514 Z-0.125000
G01 X62.432848 Y14.410972 Z-0.125000
G01 X66.445695 Y14.410972 Z-0.125000
G01 X66.445695 Y9.304514 Z-0.125000
G01 X66.445695 Y9.163403 Z-0.125000
G01 X66.586806 Y9.163403 Z-0.125000
G01 X69.426667 Y9.163403 Z-0.125000
G01 X69.567778 Y9.163403 Z-0.125000
G01 X69.567778 Y9.304514 Z-0.125000
G01 X69.567778 Y22.286736 Z-0.125000
G01 X69.567778 Y22.427847 Z-0.125000
G01 X69.426667 Y22.427847 Z-0.125000
G01 X66.586806 Y22.427847 Z-0.125000
G01 X66.445695 Y22.427847 Z-0.125000
G01 X66.445695 Y22.286736 Z-0.125000
G01 X66.445695 Y17.347847 Z-0.125000
G01 X62.432848 Y17.347847 Z-0.125000
G01 X62.432848 Y22.286736 Z-0.125000
G01 X62.432848 Y22.427847 Z-0.125000
G01 X62.291736 Y22.427847 Z-0.125000
G01 X59.451875 Y22.427847 Z-0.125000
G01 X59.310764 Y22.427847 Z-0.125000
G01 X59.310764 Y22.427847 Z-0.125000
G00 Z5.000000

G00 Z5.000000
G00 X50.702986 Y19.490972

G01 Z-0.125000 F100.0
G01 X54.142570 Y19.490972 Z-0.125000 F400.000000
G01 X54.724653 Y18.891250 Z-0.125000
G01 X54.724653 Y17.524236 Z-0.125000
G01 X54.142570 Y16.924514 Z-0.125000
G01 X50.702986 Y16.924514 Z-0.125000
G01 X50.702986 Y19.490972 Z-0.125000
G01 X50.702986 Y19.490972 Z-0.125000
G00 Z5.000000

G00 Z5.000000
G00 X50.561875 Y19.773195

G01 Z-0.125000 F100.0
G01 X50.561875 Y19.632083 Z-0.125000 F400.000000
G01 X50.420764 Y19.632083 Z-0.125000
G01 X50.420764 Y19.490972 Z-0.125000
G01 X50.420764 Y16.783403 Z-0.125000
G01 X50.420764 Y16.642292 Z-0.125000
G01 X50.561875 Y16.642292 Z-0.125000
G01 X54.204306 Y16.642292 Z-0.125000
G01 X54.266042 Y16.642292 Z-0.125000
G01 X54.301320 Y16.686389 Z-0.125000
G01 X54.962778 Y17.356667 Z-0.125000
G01 X55.006875 Y17.400764 Z-0.125000
G01 X55.006875 Y17.462500 Z-0.125000
G01 X55.006875 Y18.961806 Z-0.125000
G01 X55.006875 Y19.014722 Z-0.125000
G01 X54.962778 Y19.058820 Z-0.125000
G01 X54.301320 Y19.737917 Z-0.125000
G01 X54.266042 Y19.773195 Z-0.125000
G01 X54.204306 Y19.773195 Z-0.125000
G01 X50.561875 Y19.773195 Z-0.125000
G01 X50.561875 Y19.773195 Z-0.125000
G00 Z5.000000

G00 Z5.000000
G00 X47.871945 Y22.145625

G01 Z-0.125000 F100.0
G01 X55.615417 Y22.145625 Z-0.125000 F400.000000
G01 X57.555695 Y20.222986 Z-0.125000
G01 X57.555695 Y16.201320 Z-0.125000
G01 X55.606598 Y14.269861 Z-0.125000
G01 X55.050973 Y14.269861 Z-0.125000
G01 X54.433611 Y14.569722 Z-0.125000
G01 X54.318959 Y14.622639 Z-0.125000
G01 X54.248403 Y14.516806 Z-0.125000
G01 X54.213125 Y14.463889 Z-0.125000
G01 X54.142570 Y14.349236 Z-0.125000
G01 X54.248403 Y14.269861 Z-0.125000
G01 X54.874584 Y13.828889 Z-0.125000
G01 X54.892223 Y13.811250 Z-0.125000
G01 X57.793820 Y10.839097 Z-0.125000
G01 X55.959375 Y9.039931 Z-0.125000
G01 X50.905834 Y14.225764 Z-0.125000
G01 X50.861736 Y14.269861 Z-0.125000
G01 X50.800000 Y14.269861 Z-0.125000
G01 X50.561875 Y14.269861 Z-0.125000
G01 X50.420764 Y14.269861 Z-0.125000
G01 X50.420764 Y14.128750 Z-0.125000
G01 X50.420764 Y9.445625 Z-0.125000
G01 X47.871945 Y9.445625 Z-0.125000
G01 X47.871945 Y22.145625 Z-0.125000
G01 X47.871945 Y22.145625 Z-0.125000
G00 Z5.000000

G00 Z5.000000
G00 X47.589722 Y22.427847

G01 Z-0.125000 F100.0
G01 X47.589722 Y22.286736 Z-0.125000 F400.000000
G01 X47.589722 Y9.304514 Z-0.125000
G01 X47.589722 Y9.163403 Z-0.125000
G01 X47.730834 Y9.163403 Z-0.125000
G01 X50.561875 Y9.163403 Z-0.125000
G01 X50.702986 Y9.163403 Z-0.125000
G01 X50.702986 Y9.304514 Z-0.125000
G01 X50.702986 Y13.987639 Z-0.125000
G01 X50.747084 Y13.987639 Z-0.125000
G01 X55.862361 Y8.748889 Z-0.125000
G01 X55.959375 Y8.643056 Z-0.125000
G01 X56.056389 Y8.740069 Z-0.125000
G01 X58.084861 Y10.733264 Z-0.125000
G01 X58.190695 Y10.839097 Z-0.125000
G01 X58.093681 Y10.936111 Z-0.125000
G01 X55.112709 Y13.987639 Z-0.125000
G01 X55.668334 Y13.987639 Z-0.125000
G01 X55.721250 Y13.987639 Z-0.125000
G01 X55.765348 Y14.031736 Z-0.125000
G01 X57.793820 Y16.042570 Z-0.125000
G01 X57.837917 Y16.086667 Z-0.125000
G01 X57.837917 Y16.139583 Z-0.125000
G01 X57.837917 Y20.275903 Z-0.125000
G01 X57.837917 Y20.337639 Z-0.125000
G01 X57.793820 Y20.372917 Z-0.125000
G01 X55.765348 Y22.392570 Z-0.125000
G01 X55.721250 Y22.427847 Z-0.125000
G01 X55.668334 Y22.427847 Z-0.125000
G01 X47.730834 Y22.427847 Z-0.125000
G01 X47.589722 Y22.427847 Z-0.125000
G01 X47.589722 Y22.427847 Z-0.125000
G00 Z5.000000

G00 Z5.000000
G00 X40.807570 Y18.847153

G01 Z-0.125000 F100.0
G01 X40.781125 Y18.723681 Z-0.125000 F400.000000
G01 X40.543000 Y17.374306 Z-0.125000
G01 X39.528764 Y14.358056 Z-0.125000
G01 X39.467028 Y14.172847 Z-0.125000
G01 X39.661056 Y14.172847 Z-0.125000
G01 X42.253973 Y14.172847 Z-0.125000
G01 X42.456820 Y14.172847 Z-0.125000
G01 X42.395084 Y14.358056 Z-0.125000
G01 X41.372028 Y17.374306 Z-0.125000
G01 X41.133903 Y18.723681 Z-0.125000
G01 X41.116264 Y18.847153 Z-0.125000
G01 X40.992792 Y18.847153 Z-0.125000
G01 X40.922237 Y18.847153 Z-0.125000
G01 X40.807584 Y18.847153 Z-0.125000
G01 X40.807570 Y18.847153 Z-0.125000
G00 Z5.000000

G00 Z5.000000
G00 X40.957500 Y18.088681

G01 Z-0.125000 F100.0
G01 X41.089792 Y17.321389 Z-0.125000 F400.000000
G01 X41.098597 Y17.312584 Z-0.125000
G01 X41.098597 Y17.303778 Z-0.125000
G01 X42.059917 Y14.455098 Z-0.125000
G01 X39.855056 Y14.455098 Z-0.125000
G01 X40.816375 Y17.303778 Z-0.125000
G01 X40.825180 Y17.312584 Z-0.125000
G01 X40.825180 Y17.321389 Z-0.125000
G01 X40.957472 Y18.088681 Z-0.125000
G01 X40.957500 Y18.088681 Z-0.125000
G00 Z5.000000

G00 Z5.000000
G00 X39.572847 Y22.145625

G01 Z-0.125000 F100.0
G01 X42.342153 Y22.145625 Z-0.125000 F400.000000
G01 X46.452014 Y9.921875 Z-0.125000
G01 X44.044306 Y9.110486 Z-0.125000
G01 X43.100625 Y11.888611 Z-0.125000
G01 X43.074181 Y11.985625 Z-0.125000
G01 X42.968348 Y11.985625 Z-0.125000
G01 X38.858487 Y11.985625 Z-0.125000
G01 X38.752653 Y11.985625 Z-0.125000
G01 X38.717375 Y11.888611 Z-0.125000
G01 X37.870709 Y9.110486 Z-0.125000
G01 X35.463000 Y9.921875 Z-0.125000
G01 X39.572862 Y22.145625 Z-0.125000
G01 X39.572847 Y22.145625 Z-0.125000
G00 Z5.000000

G00 Z5.000000
G00 X39.378820 Y22.427847

G01 Z-0.125000 F100.0
G01 X39.343542 Y22.330833 Z-0.125000 F400.000000
G01 X35.154306 Y9.877778 Z-0.125000
G01 X35.110209 Y9.745486 Z-0.125000
G01 X35.242500 Y9.701389 Z-0.125000
G01 X37.914792 Y8.801806 Z-0.125000
G01 X38.047084 Y8.757708 Z-0.125000
G01 X38.091181 Y8.890000 Z-0.125000
G01 X38.964306 Y11.703403 Z-0.125000
G01 X42.871320 Y11.703403 Z-0.125000
G01 X43.823820 Y8.890000 Z-0.125000
G01 X43.867917 Y8.757708 Z-0.125000
G01 X44.000209 Y8.801806 Z-0.125000
G01 X46.672500 Y9.701389 Z-0.125000
G01 X46.804792 Y9.745486 Z-0.125000
G01 X46.760695 Y9.877778 Z-0.125000
G01 X42.571459 Y22.330833 Z-0.125000
G01 X42.545014 Y22.427847 Z-0.125000
G01 X42.439181 Y22.427847 Z-0.125000
G01 X39.475848 Y22.427847 Z-0.125000
G01 X39.378834 Y22.427847 Z-0.125000
G01 X39.378820 Y22.427847 Z-0.125000
G00 Z5.000000

G00 Z5.000000
G00 X28.724931 Y18.847153

G01 Z-0.125000 F100.0
G01 X28.707292 Y18.723681 Z-0.125000 F400.000000
G01 X28.469167 Y17.374306 Z-0.125000
G01 X27.454931 Y14.358056 Z-0.125000
G01 X27.384375 Y14.172847 Z-0.125000
G01 X27.587222 Y14.172847 Z-0.125000
G01 X30.180139 Y14.172847 Z-0.125000
G01 X30.382986 Y14.172847 Z-0.125000
G01 X30.312431 Y14.358056 Z-0.125000
G01 X29.298195 Y17.374306 Z-0.125000
G01 X29.060070 Y18.723681 Z-0.125000
G01 X29.042431 Y18.847153 Z-0.125000
G01 X28.918959 Y18.847153 Z-0.125000
G01 X28.848403 Y18.847153 Z-0.125000
G01 X28.724931 Y18.847153 Z-0.125000
G01 X28.724931 Y18.847153 Z-0.125000
G00 Z5.000000

G00 Z5.000000
G00 X28.883681 Y18.079861

G01 Z-0.125000 F100.0
G01 X29.015972 Y17.321389 Z-0.125000 F400.000000
G01 X29.024778 Y17.312584 Z-0.125000
G01 X29.024778 Y17.303778 Z-0.125000
G01 X29.986097 Y14.455098 Z-0.125000
G01 X27.781236 Y14.455098 Z-0.125000
G01 X28.742556 Y17.303778 Z-0.125000
G01 X28.742556 Y17.312584 Z-0.125000
G01 X28.751361 Y17.321389 Z-0.125000
G01 X28.883653 Y18.079861 Z-0.125000
G01 X28.883681 Y18.079861 Z-0.125000
G00 Z5.000000

G00 Z5.000000
G00 X27.499028 Y22.145625

G01 Z-0.125000 F100.0
G01 X30.268334 Y22.145625 Z-0.125000 F400.000000
G01 X34.378195 Y9.921875 Z-0.125000
G01 X31.970486 Y9.110486 Z-0.125000
G01 X31.026806 Y11.888611 Z-0.125000
G01 X31.000362 Y11.985625 Z-0.125000
G01 X30.894528 Y11.985625 Z-0.125000
G01 X26.775848 Y11.985625 Z-0.125000
G01 X26.678834 Y11.985625 Z-0.125000
G01 X26.643556 Y11.888611 Z-0.125000
G01 X25.796889 Y9.110486 Z-0.125000
G01 X23.389181 Y9.921875 Z-0.125000
G01 X27.499042 Y22.145625 Z-0.125000
G01 X27.499028 Y22.145625 Z-0.125000
G00 Z5.000000

G00 Z5.000000
G00 X27.296181 Y22.427847

G01 Z-0.125000 F100.0
G01 X27.269722 Y22.330833 Z-0.125000 F400.000000
G01 X23.080486 Y9.877778 Z-0.125000
G01 X23.036389 Y9.745486 Z-0.125000
G01 X23.168681 Y9.701389 Z-0.125000
G01 X25.840972 Y8.801806 Z-0.125000
G01 X25.973264 Y8.757708 Z-0.125000
G01 X26.017361 Y8.890000 Z-0.125000
G01 X26.890486 Y11.703403 Z-0.125000
G01 X30.797500 Y11.703403 Z-0.125000
G01 X31.750000 Y8.890000 Z-0.125000
G01 X31.794097 Y8.757708 Z-0.125000
G01 X31.926389 Y8.801806 Z-0.125000
G01 X34.598681 Y9.701389 Z-0.125000
G01 X34.730972 Y9.745486 Z-0.125000
G01 X34.686875 Y9.877778 Z-0.125000
G01 X30.497639 Y22.330833 Z-0.125000
G01 X30.462361 Y22.427847 Z-0.125000
G01 X30.365347 Y22.427847 Z-0.125000
G01 X27.402014 Y22.427847 Z-0.125000
G01 X27.296181 Y22.427847 Z-0.125000
G01 X27.296181 Y22.427847 Z-0.125000
G00 Z5.000000

G00 Z5.000000
G00 X26.246667 Y40.040278

G01 Z-0.125000 F100.0
G01 X30.982709 Y40.040278 Z-0.125000 F400.000000
G01 X33.460972 Y39.193611 Z-0.125000
G01 X32.693681 Y36.918195 Z-0.125000
G01 X30.524097 Y37.659028 Z-0.125000
G01 X30.497653 Y37.667833 Z-0.125000
G01 X30.471209 Y37.667833 Z-0.125000
G01 X27.331487 Y37.667833 Z-0.125000
G01 X27.269751 Y37.667833 Z-0.125000
G01 X27.225653 Y37.632556 Z-0.125000
G01 X26.608292 Y37.006375 Z-0.125000
G01 X26.564195 Y36.962278 Z-0.125000
G01 X26.564195 Y36.909361 Z-0.125000
G01 X26.564195 Y36.450750 Z-0.125000
G01 X26.564195 Y36.415472 Z-0.125000
G01 X26.581834 Y36.389028 Z-0.125000
G01 X26.819959 Y35.895139 Z-0.125000
G01 X26.837598 Y35.842222 Z-0.125000
G01 X26.890514 Y35.824584 Z-0.125000
G01 X32.684890 Y33.319861 Z-0.125000
G01 X33.408084 Y31.952847 Z-0.125000
G01 X33.408084 Y29.580417 Z-0.125000
G01 X31.159126 Y27.331458 Z-0.125000
G01 X26.440723 Y27.331458 Z-0.125000
G01 X23.936001 Y28.178125 Z-0.125000
G01 X24.712112 Y30.453542 Z-0.125000
G01 X26.881695 Y29.712709 Z-0.125000
G01 X26.899334 Y29.703903 Z-0.125000
G01 X26.925792 Y29.703903 Z-0.125000
G01 X30.091973 Y29.703903 Z-0.125000
G01 X30.144890 Y29.703903 Z-0.125000
G01 X30.188987 Y29.748000 Z-0.125000
G01 X30.815167 Y30.365362 Z-0.125000
G01 X30.850445 Y30.409459 Z-0.125000
G01 X30.850445 Y30.471195 Z-0.125000
G01 X30.850445 Y30.920987 Z-0.125000
G01 X30.850445 Y30.956264 Z-0.125000
G01 X30.841640 Y30.982709 Z-0.125000
G01 X30.603515 Y31.476597 Z-0.125000
G01 X30.577071 Y31.529514 Z-0.125000
G01 X30.532973 Y31.547153 Z-0.125000
G01 X24.747418 Y34.051875 Z-0.125000
G01 X24.015404 Y35.418889 Z-0.125000
G01 X24.015404 Y37.800139 Z-0.125000
G01 X26.246667 Y40.040278 Z-0.125000
G01 X26.246667 Y40.040278 Z-0.125000
G00 Z5.000000

G00 Z5.000000
G00 X26.132014 Y40.322500

G01 Z-0.125000 F100.0
G01 X26.096736 Y40.278403 Z-0.125000 F400.000000
G01 X23.768403 Y37.958889 Z-0.125000
G01 X23.733125 Y37.914792 Z-0.125000
G01 X23.733125 Y37.861875 Z-0.125000
G01 X23.733125 Y35.392431 Z-0.125000
G01 X23.733125 Y35.357153 Z-0.125000
G01 X23.750764 Y35.321875 Z-0.125000
G01 X24.518056 Y33.875486 Z-0.125000
G01 X24.535695 Y33.831389 Z-0.125000
G01 X24.579792 Y33.813750 Z-0.125000
G01 X30.374167 Y31.309028 Z-0.125000
G01 X30.568195 Y30.903334 Z-0.125000
G01 X30.568195 Y30.524097 Z-0.125000
G01 X30.039028 Y29.986111 Z-0.125000
G01 X26.943403 Y29.986111 Z-0.125000
G01 X24.667986 Y30.762222 Z-0.125000
G01 X24.535695 Y30.815139 Z-0.125000
G01 X24.491597 Y30.674028 Z-0.125000
G01 X23.627292 Y28.134028 Z-0.125000
G01 X23.583195 Y28.001736 Z-0.125000
G01 X23.715486 Y27.957639 Z-0.125000
G01 X26.352500 Y27.058056 Z-0.125000
G01 X26.370139 Y27.049250 Z-0.125000
G01 X26.396597 Y27.049250 Z-0.125000
G01 X31.220834 Y27.049250 Z-0.125000
G01 X31.282570 Y27.049250 Z-0.125000
G01 X31.326667 Y27.093333 Z-0.125000
G01 X33.646181 Y29.421667 Z-0.125000
G01 X33.690278 Y29.456945 Z-0.125000
G01 X33.690278 Y29.518681 Z-0.125000
G01 X33.690278 Y31.988125 Z-0.125000
G01 X33.690278 Y32.023403 Z-0.125000
G01 X33.672639 Y32.049847 Z-0.125000
G01 X32.905347 Y33.496236 Z-0.125000
G01 X32.878903 Y33.540333 Z-0.125000
G01 X32.834806 Y33.557972 Z-0.125000
G01 X27.058056 Y36.053889 Z-0.125000
G01 X26.846389 Y36.494861 Z-0.125000
G01 X26.846389 Y36.847639 Z-0.125000
G01 X27.384375 Y37.385625 Z-0.125000
G01 X30.453542 Y37.385625 Z-0.125000
G01 X32.737778 Y36.609514 Z-0.125000
G01 X32.870070 Y36.565417 Z-0.125000
G01 X32.914167 Y36.697709 Z-0.125000
G01 X33.769653 Y39.237709 Z-0.125000
G01 X33.813750 Y39.370000 Z-0.125000
G01 X33.681459 Y39.414097 Z-0.125000
G01 X31.053264 Y40.313681 Z-0.125000
G01 X31.026820 Y40.322486 Z-0.125000
G01 X31.009181 Y40.322486 Z-0.125000
G01 X26.193764 Y40.322486 Z-0.125000
G01 X26.132028 Y40.322486 Z-0.125000
G01 X26.132014 Y40.322500 Z-0.125000
G00 Z5.000000

G00 Z5.000000
G00 X35.145486 Y40.322500

G01 Z-0.125000 F100.0
G01 X35.145486 Y40.181389 Z-0.125000 F400.000000
G01 X35.145486 Y27.190347 Z-0.125000
G01 X35.145486 Y27.049236 Z-0.125000
G01 X35.286597 Y27.049236 Z-0.125000
G01 X38.126459 Y27.049236 Z-0.125000
G01 X38.267570 Y27.049236 Z-0.125000
G01 X38.267570 Y27.190347 Z-0.125000
G01 X38.267570 Y31.203195 Z-0.125000
G01 X42.915417 Y31.203195 Z-0.125000
G01 X42.977153 Y31.203195 Z-0.125000
G01 X43.012431 Y31.247292 Z-0.125000
G01 X45.358403 Y33.566806 Z-0.125000
G01 X45.393681 Y33.610903 Z-0.125000
G01 X45.393681 Y33.672639 Z-0.125000
G01 X45.393681 Y37.861875 Z-0.125000
G01 X45.393681 Y37.914792 Z-0.125000
G01 X45.358403 Y37.958889 Z-0.125000
G01 X43.012431 Y40.278403 Z-0.125000
G01 X42.977153 Y40.322500 Z-0.125000
G01 X42.915417 Y40.322500 Z-0.125000
G01 X35.286597 Y40.322500 Z-0.125000
G01 X35.145486 Y40.322500 Z-0.125000
G01 X35.145486 Y40.322500 Z-0.125000
G00 Z5.000000

G00 Z5.000000
G00 X35.427709 Y40.040278

G01 Z-0.125000 F100.0
G01 X42.862500 Y40.040278 Z-0.125000 F400.000000
G01 X45.111459 Y37.800139 Z-0.125000
G01 X45.111459 Y33.725556 Z-0.125000
G01 X42.853681 Y31.485417 Z-0.125000
G01 X38.126459 Y31.485417 Z-0.125000
G01 X37.985347 Y31.485417 Z-0.125000
G01 X37.985347 Y31.344306 Z-0.125000
G01 X37.985347 Y27.331458 Z-0.125000
G01 X35.427709 Y27.331458 Z-0.125000
G01 X35.427709 Y40.040278 Z-0.125000
G01 X35.427709 Y40.040278 Z-0.125000
G00 Z5.000000

G00 Z5.000000
G00 X37.985347 Y37.667847

G01 Z-0.125000 F100.0
G01 X37.985347 Y37.526736 Z-0.125000 F400.000000
G01 X37.985347 Y33.998959 Z-0.125000
G01 X37.985347 Y33.857847 Z-0.125000
G01 X38.126459 Y33.857847 Z-0.125000
G01 X41.689514 Y33.857847 Z-0.125000
G01 X41.751250 Y33.857847 Z-0.125000
G01 X41.786528 Y33.901945 Z-0.125000
G01 X42.518542 Y34.633959 Z-0.125000
G01 X42.562639 Y34.669236 Z-0.125000
G01 X42.562639 Y34.730972 Z-0.125000
G01 X42.562639 Y36.794722 Z-0.125000
G01 X42.562639 Y36.856459 Z-0.125000
G01 X42.518542 Y36.900556 Z-0.125000
G01 X41.786528 Y37.632570 Z-0.125000
G01 X41.751250 Y37.667847 Z-0.125000
G01 X41.689514 Y37.667847 Z-0.125000
G01 X38.126459 Y37.667847 Z-0.125000
G01 X37.985347 Y37.667847 Z-0.125000
G01 X37.985347 Y37.667847 Z-0.125000
G00 Z5.000000

G00 Z5.000000
G00 X38.267570 Y37.385625

G01 Z-0.125000 F100.0
G01 X41.636597 Y37.385625 Z-0.125000 F400.000000
G01 X42.280417 Y36.741806 Z-0.125000
G01 X42.280417 Y34.783889 Z-0.125000
G01 X41.636597 Y34.140070 Z-0.125000
G01 X38.267570 Y34.140070 Z-0.125000
G01 X38.267570 Y37.385625 Z-0.125000
G01 X38.267570 Y37.385625 Z-0.125000
G00 Z5.000000

G00 Z5.000000
G00 X48.612778 Y40.322500

G01 Z-0.125000 F100.0
G01 X48.586334 Y40.225486 Z-0.125000 F400.000000
G01 X44.397098 Y27.772431 Z-0.125000
G01 X44.344181 Y27.631320 Z-0.125000
G01 X44.485292 Y27.587222 Z-0.125000
G01 X47.148764 Y26.696458 Z-0.125000
G01 X47.289875 Y26.652361 Z-0.125000
G01 X47.333973 Y26.784653 Z-0.125000
G01 X48.198278 Y29.598056 Z-0.125000
G01 X52.114112 Y29.598056 Z-0.125000
G01 X53.066612 Y26.784653 Z-0.125000
G01 X53.110709 Y26.652361 Z-0.125000
G01 X53.243001 Y26.696458 Z-0.125000
G01 X55.915292 Y27.587222 Z-0.125000
G01 X56.047584 Y27.631320 Z-0.125000
G01 X56.003487 Y27.772431 Z-0.125000
G01 X51.814251 Y40.225486 Z-0.125000
G01 X51.778973 Y40.322500 Z-0.125000
G01 X51.681959 Y40.322500 Z-0.125000
G01 X48.718626 Y40.322500 Z-0.125000
G01 X48.612792 Y40.322500 Z-0.125000
G01 X48.612778 Y40.322500 Z-0.125000
G00 Z5.000000

G00 Z5.000000
G00 X48.815625 Y40.040278

G01 Z-0.125000 F100.0
G01 X51.584931 Y40.040278 Z-0.125000 F400.000000
G01 X55.685973 Y27.816528 Z-0.125000
G01 X53.287084 Y27.005139 Z-0.125000
G01 X52.343403 Y29.783264 Z-0.125000
G01 X52.308125 Y29.880278 Z-0.125000
G01 X52.211111 Y29.880278 Z-0.125000
G01 X48.092431 Y29.880278 Z-0.125000
G01 X47.986598 Y29.880278 Z-0.125000
G01 X47.960153 Y29.774445 Z-0.125000
G01 X47.104667 Y27.005139 Z-0.125000
G01 X44.705778 Y27.816528 Z-0.125000
G01 X48.815639 Y40.040278 Z-0.125000
G01 X48.815625 Y40.040278 Z-0.125000
G00 Z5.000000

G00 Z5.000000
G00 X50.041528 Y36.732986

G01 Z-0.125000 F100.0
G01 X50.023889 Y36.618334 Z-0.125000 F400.000000
G01 X49.785764 Y35.286597 Z-0.125000
G01 X48.762709 Y32.252709 Z-0.125000
G01 X48.700973 Y32.067500 Z-0.125000
G01 X48.895000 Y32.067500 Z-0.125000
G01 X51.496736 Y32.067500 Z-0.125000
G01 X51.690764 Y32.067500 Z-0.125000
G01 X51.629028 Y32.252709 Z-0.125000
G01 X50.614792 Y35.268959 Z-0.125000
G01 X50.376667 Y36.618334 Z-0.125000
G01 X50.350223 Y36.732986 Z-0.125000
G01 X50.235570 Y36.732986 Z-0.125000
G01 X50.165014 Y36.732986 Z-0.125000
G01 X50.041542 Y36.732986 Z-0.125000
G01 X50.041528 Y36.732986 Z-0.125000
G00 Z5.000000

G00 Z5.000000
G00 X50.200278 Y35.992153

G01 Z-0.125000 F100.0
G01 X50.332570 Y35.216042 Z-0.125000 F400.000000
G01 X50.332570 Y35.207237 Z-0.125000
G01 X50.341375 Y35.198431 Z-0.125000
G01 X51.302695 Y32.349751 Z-0.125000
G01 X49.097833 Y32.349751 Z-0.125000
G01 X50.059153 Y35.198431 Z-0.125000
G01 X50.059153 Y35.207237 Z-0.125000
G01 X50.059153 Y35.216042 Z-0.125000
G01 X50.200264 Y35.992153 Z-0.125000
G01 X50.200278 Y35.992153 Z-0.125000
G00 Z5.000000

G00 Z5.000000
G00 X85.081181 Y22.427847

G01 Z-0.125000 F100.0
G01 X85.037084 Y22.383750 Z-0.125000 F400.000000
G01 X82.717570 Y20.064236 Z-0.125000
G01 X82.673473 Y20.020139 Z-0.125000
G01 X82.673473 Y19.967222 Z-0.125000
G01 X82.673473 Y17.497778 Z-0.125000
G01 X82.673473 Y17.462500 Z-0.125000
G01 X82.691112 Y17.427222 Z-0.125000
G01 X83.458403 Y15.980833 Z-0.125000
G01 X83.484847 Y15.936736 Z-0.125000
G01 X83.528945 Y15.919097 Z-0.125000
G01 X89.323320 Y13.414375 Z-0.125000
G01 X89.517348 Y13.008681 Z-0.125000
G01 X89.517348 Y12.629445 Z-0.125000
G01 X88.970542 Y12.091458 Z-0.125000
G01 X85.892556 Y12.091458 Z-0.125000
G01 X83.608320 Y12.876389 Z-0.125000
G01 X83.476028 Y12.920486 Z-0.125000
G01 X83.431931 Y12.788195 Z-0.125000
G01 X82.576445 Y10.239375 Z-0.125000
G01 X82.532347 Y10.107083 Z-0.125000
G01 X82.664639 Y10.062986 Z-0.125000
G01 X85.292834 Y9.163403 Z-0.125000
G01 X85.319278 Y9.163403 Z-0.125000
G01 X85.336917 Y9.163403 Z-0.125000
G01 X90.169972 Y9.163403 Z-0.125000
G01 X90.231708 Y9.163403 Z-0.125000
G01 X90.266986 Y9.198681 Z-0.125000
G01 X92.595320 Y11.527014 Z-0.125000
G01 X92.630597 Y11.562292 Z-0.125000
G01 X92.630597 Y11.624028 Z-0.125000
G01 X92.630597 Y14.093472 Z-0.125000
G01 X92.630597 Y14.128750 Z-0.125000
G01 X92.621792 Y14.155194 Z-0.125000
G01 X91.845681 Y15.601583 Z-0.125000
G01 X91.828042 Y15.645680 Z-0.125000
G01 X91.783945 Y15.663319 Z-0.125000
G01 X85.989570 Y18.176861 Z-0.125000
G01 X85.795542 Y18.582555 Z-0.125000
G01 X85.795542 Y18.961792 Z-0.125000
G01 X86.333528 Y19.490958 Z-0.125000
G01 X89.402695 Y19.490958 Z-0.125000
G01 X91.678111 Y18.714847 Z-0.125000
G01 X91.810403 Y18.670750 Z-0.125000
G01 X91.854500 Y18.803042 Z-0.125000
G01 X92.718806 Y21.343042 Z-0.125000
G01 X92.762903 Y21.475333 Z-0.125000
G01 X92.630611 Y21.528250 Z-0.125000
G01 X89.993598 Y22.419014 Z-0.125000
G01 X89.975959 Y22.427819 Z-0.125000
G01 X89.949514 Y22.427819 Z-0.125000
G01 X85.142917 Y22.427819 Z-0.125000
G01 X85.081181 Y22.427819 Z-0.125000
G01 X85.081181 Y22.427847 Z-0.125000
G00 Z5.000000

G00 Z5.000000
G00 X85.195834 Y22.145625

G01 Z-0.125000 F100.0
G01 X89.931876 Y22.145625 Z-0.125000 F400.000000
G01 X92.410139 Y21.298958 Z-0.125000
G01 X91.634028 Y19.023542 Z-0.125000
G01 X89.464445 Y19.773195 Z-0.125000
G01 X89.446806 Y19.773195 Z-0.125000
G01 X89.420362 Y19.773195 Z-0.125000
G01 X86.271820 Y19.773195 Z-0.125000
G01 X86.218904 Y19.773195 Z-0.125000
G01 X86.174806 Y19.737917 Z-0.125000
G01 X85.548626 Y19.111736 Z-0.125000
G01 X85.513348 Y19.067639 Z-0.125000
G01 X85.513348 Y19.014722 Z-0.125000
G01 X85.513348 Y18.556111 Z-0.125000
G01 X85.513348 Y18.520833 Z-0.125000
G01 X85.522153 Y18.494389 Z-0.125000
G01 X85.760278 Y18.000500 Z-0.125000
G01 X85.786722 Y17.956403 Z-0.125000
G01 X85.830820 Y17.929959 Z-0.125000
G01 X91.616375 Y15.425237 Z-0.125000
G01 X92.348389 Y14.058223 Z-0.125000
G01 X92.348389 Y11.676973 Z-0.125000
G01 X90.117070 Y9.445653 Z-0.125000
G01 X85.363389 Y9.445653 Z-0.125000
G01 X82.885125 Y10.283501 Z-0.125000
G01 X83.652417 Y12.558917 Z-0.125000
G01 X85.822000 Y11.818084 Z-0.125000
G01 X85.848444 Y11.809279 Z-0.125000
G01 X85.874889 Y11.809279 Z-0.125000
G01 X89.032250 Y11.809279 Z-0.125000
G01 X89.093986 Y11.809279 Z-0.125000
G01 X89.138083 Y11.853376 Z-0.125000
G01 X89.755444 Y12.479556 Z-0.125000
G01 X89.799542 Y12.514834 Z-0.125000
G01 X89.799542 Y12.576570 Z-0.125000
G01 X89.799542 Y13.035181 Z-0.125000
G01 X89.799542 Y13.061626 Z-0.125000
G01 X89.781903 Y13.096903 Z-0.125000
G01 X89.543778 Y13.590792 Z-0.125000
G01 X89.526139 Y13.634889 Z-0.125000
G01 X89.473222 Y13.652528 Z-0.125000
G01 X83.678847 Y16.166070 Z-0.125000
G01 X82.955653 Y17.524264 Z-0.125000
G01 X82.955653 Y19.896695 Z-0.125000
G01 X85.195791 Y22.145653 Z-0.125000
G01 X85.195834 Y22.145625 Z-0.125000
G00 Z5.000000


(Footer)
M5
G00 X0.0000 Y0.0000
M2
(Using default footer. To add your own footer create file "footer" in the output dir.)
(end)
%